**kern	**kern	**kern	**kern	**kern	**kern	**kern	**kern	**kern	**kern	**kern	**kern	**kern	**kern	**kern	**kern
*ITrd7c12	*	*	*	*	*	*	*	*	*ITrd7c12	*ITrd7c12	*	*	*	*	*
*	*Icello	*Iviola	*Ivioln	*Ivioln	*Ivioln	*Itimpa	*Itromp	*Itromp	*	*	*Ifagot	*Ifagot	*Ioboe	*Ioboe	*Iflt
*Icbass	*I"Violoncello	*I"Viola	*I#2	*I#1	*I"Violino Solo	*I"Timpani	*I#2	*I#1	*Icor	*Icor	*I#2	*I#1	*I#2	*I#1	*I"Flauto
*I"Basso	*	*	*I"Violino II	*I"Violino I	*	*	*I"Tromba 2	*I"Tromba 1	*I#2	*I#1	*I"Fagotto 2	*I"Fagotto 1	*I"Oboe 2	*I"Oboe 1	*
*	*	*	*	*	*	*	*	*	*I"Corno 2	*I"Corno 1	*	*	*	*	*
*>[A,A,B,B,C,C,D,D,E,F,F,G,G,H,H,I]	*>[A,A,B,B,C,C,D,D,E,F,F,G,G,H,H,I]	*>[A,A,B,B,C,C,D,D,E,F,F,G,G,H,H,I]	*>[A,A,B,B,C,C,D,D,E,F,F,G,G,H,H,I]	*>[A,A,B,B,C,C,D,D,E,F,F,G,G,H,H,I]	*>[A,A,B,B,C,C,D,D,E,F,F,G,G,H,H,I]	*>[A,A,B,B,C,C,D,D,E,F,F,G,G,H,H,I]	*>[A,A,B,B,C,C,D,D,E,F,F,G,G,H,H,I]	*>[A,A,B,B,C,C,D,D,E,F,F,G,G,H,H,I]	*>[A,A,B,B,C,C,D,D,E,F,F,G,G,H,H,I]	*>[A,A,B,B,C,C,D,D,E,F,F,G,G,H,H,I]	*>[A,A,B,B,C,C,D,D,E,F,F,G,G,H,H,I]	*>[A,A,B,B,C,C,D,D,E,F,F,G,G,H,H,I]	*>[A,A,B,B,C,C,D,D,E,F,F,G,G,H,H,I]	*>[A,A,B,B,C,C,D,D,E,F,F,G,G,H,H,I]	*>[A,A,B,B,C,C,D,D,E,F,F,G,G,H,H,I]
*>norep[A,B,C,D,E,F,G,H,I]	*>norep[A,B,C,D,E,F,G,H,I]	*>norep[A,B,C,D,E,F,G,H,I]	*>norep[A,B,C,D,E,F,G,H,I]	*>norep[A,B,C,D,E,F,G,H,I]	*>norep[A,B,C,D,E,F,G,H,I]	*>norep[A,B,C,D,E,F,G,H,I]	*>norep[A,B,C,D,E,F,G,H,I]	*>norep[A,B,C,D,E,F,G,H,I]	*>norep[A,B,C,D,E,F,G,H,I]	*>norep[A,B,C,D,E,F,G,H,I]	*>norep[A,B,C,D,E,F,G,H,I]	*>norep[A,B,C,D,E,F,G,H,I]	*>norep[A,B,C,D,E,F,G,H,I]	*>norep[A,B,C,D,E,F,G,H,I]	*>norep[A,B,C,D,E,F,G,H,I]
=1	=1	=1	=1	=1	=1	=1	=1	=1	=1	=1	=1	=1	=1	=1	=1
*>A	*>A	*>A	*>A	*>A	*>A	*>A	*>A	*>A	*>A	*>A	*>A	*>A	*>A	*>A	*>A
!layout:Basso.lyo	!layout:Violoncello.lyo	!layout:Viola.lyo	!layout:Violino_II.lyo	!layout:Violino_I.lyo	!	!layout:Timpani.lyo	!layout:Tromba_2.lyo	!layout:Tromba_1.lyo	!layout:Corno_2.lyo	!layout:Corno_1.lyo	!layout:Fagotto_2.lyo	!layout:Fagotto_1.lyo	!layout:Oboe_2.lyo	!layout:Oboe_1.lyo	!layout:Flauto.lyo
*staff:9	*staff:9	*staff:10	*staff:11	*staff:12	*M2/4	*staff:13	*staff:14	*staff:14	*staff:15	*staff:15	*staff:16	*staff:16	*staff:17	*staff:17	*staff:18
*clefF4	*clefF4	*clefC3	*clefG2	*clefG2	*	*clefF4	*clefG2	*clefG2	*clefG2	*clefG2	*clefF4	*clefF4	*clefG2	*clefG2	*clefG2
*k[b-e-a-]	*k[b-e-a-]	*k[b-e-a-]	*k[b-e-a-]	*k[b-e-a-]	*	*M2/4	*M2/4	*M2/4	*M2/4	*M2/4	*k[b-e-a-]	*k[b-e-a-]	*k[b-e-a-]	*k[b-e-a-]	*k[b-e-a-]
*M2/4	*M2/4	*M2/4	*M2/4	*M2/4	*	*	*	*	*	*	*M2/4	*M2/4	*M2/4	*M2/4	*M2/4
8r	8r	8r	8G	8G	8ryy	8r	8r	8r	8r	8r	8r	8r	8r	8r	8r
=2	=2	=2	=2	=2	=2	=2	=2	=2	=2	=2	=2	=2	=2	=2	=2
8r	8r	8r	4c	4c	2ryy	2r	2r	2r	2r	2r	2r	2r	2r	2r	2r
8CCC	8CC	8C	.	.	.	.	.	.	.	.	.	.	.	.	.
8CC	8C	8c	8e-	8e-	.	.	.	.	.	.	.	.	.	.	.
8CC'	8C'	8c'	8f#	8f#	.	.	.	.	.	.	.	.	.	.	.
=3	=3	=3	=3	=3	=3	=3	=3	=3	=3	=3	=3	=3	=3	=3	=3
4BBB	4BBn	4Bn	8g'	8g'	2ryy	2r	2r	2r	2r	2r	2r	2r	2r	2r	2r
.	.	.	8d'	8d'	.	.	.	.	.	.	.	.	.	.	.
4r	4r	4r	8Bn'	8Bn'	.	.	.	.	.	.	.	.	.	.	.
.	.	.	8G'	8G'	.	.	.	.	.	.	.	.	.	.	.
=4	=4	=4	=4	=4	=4	=4	=4	=4	=4	=4	=4	=4	=4	=4	=4
8r	8r	8r	8.c	8.c	2ryy	2r	2r	2r	2r	2r	2r	2r	2r	2r	2r
8CCC	8CC	8C	.	.	.	.	.	.	.	.	.	.	.	.	.
.	.	.	16d	16d	.	.	.	.	.	.	.	.	.	.	.
8CC	8C	8c	8e-	8e-	.	.	.	.	.	.	.	.	.	.	.
8CC'	8C'	8c'	8f#	8f#'	.	.	.	.	.	.	.	.	.	.	.
=5	=5	=5	=5	=5	=5	=5	=5	=5	=5	=5	=5	=5	=5	=5	=5
4BBB	4BBn	4Bn	16.g	16.g	2ryy	2r	2r	2r	2r	2r	2r	2r	2r	2r	2r
.	.	.	32f#	32f#	.	.	.	.	.	.	.	.	.	.	.
.	.	.	16.an	16.an	.	.	.	.	.	.	.	.	.	.	.
.	.	.	32f#	32f#	.	.	.	.	.	.	.	.	.	.	.
4r	4r	4r	8g'	8g'	.	.	.	.	.	.	.	.	.	.	.
.	.	.	8G	8G	.	.	.	.	.	.	.	.	.	.	.
=6	=6	=6	=6	=6	=6	=6	=6	=6	=6	=6	=6	=6	=6	=6	=6
8r	8r	8r	4c	4c	2ryy	2r	2r	2r	2r	2r	2r	2r	2r	2r	2r
8AAA-	8AA-	8A-'	.	.	.	.	.	.	.	.	.	.	.	.	.
8AA-	8A-	8A-'	8en	8en	.	.	.	.	.	.	.	.	.	.	.
8AA-'	8A-'	8A-'	8f	8f	.	.	.	.	.	.	.	.	.	.	.
=7	=7	=7	=7	=7	=7	=7	=7	=7	=7	=7	=7	=7	=7	=7	=7
4GG	4G	4G	16.b-	16.b-	2ryy	2r	2r	2r	2r	2r	2r	2r	2r	2r	2r
.	.	.	32f#	32f#	.	.	.	.	.	.	.	.	.	.	.
.	.	.	16.g	16.g	.	.	.	.	.	.	.	.	.	.	.
.	.	.	32d	32d	.	.	.	.	.	.	.	.	.	.	.
8r	8r	8r	8e-	8e-	.	.	.	.	.	.	.	.	.	.	.
8GGG	8GG	8G	8r	8r	.	.	.	.	.	.	.	.	.	.	.
=8	=8	=8	=8	=8	=8	=8	=8	=8	=8	=8	=8	=8	=8	=8	=8
4AAA-	4AA-	4A-	16.cc	16.cc	2ryy	2r	2r	2r	2r	2r	2r	2r	2r	2r	2r
.	.	.	32g	32g	.	.	.	.	.	.	.	.	.	.	.
.	.	.	16.a-	16.a-	.	.	.	.	.	.	.	.	.	.	.
.	.	.	32en	32en	.	.	.	.	.	.	.	.	.	.	.
8r	8r	8r	8f'	8f'	.	.	.	.	.	.	.	.	.	.	.
8BBB-'	8BB-'	8B-'	8b-'	8b-'	.	.	.	.	.	.	.	.	.	.	.
=9	=9	=9	=9	=9	=9	=9	=9	=9	=9	=9	=9	=9	=9	=9	=9
*staff:5	*staff:5	*staff:6	*staff:7	*staff:8	*	*	*	*	*	*	*	*	*	*	*
8r	8r	8r	8e-	8e-	4.ryy	4.ryy	4.ryy	4.ryy	4.ryy	4.ryy	4.ryy	4.ryy	4.ryy	4.ryy	4.ryy
8EE-'	8E-'	8e-'	8r	8r	.	.	.	.	.	.	.	.	.	.	.
8EEE-'	8EE-'	8E-'	8r	8r	.	.	.	.	.	.	.	.	.	.	.
=10:||:	=10:||:	=10:||:	=10:||:	=10:||:	=10:||:	=10:||:	=10:||:	=10:||:	=10:||:	=10:||:	=10:||:	=10:||:	=10:||:	=10:||:	=10:||:
*>B	*>B	*>B	*>B	*>B	*>B	*>B	*>B	*>B	*>B	*>B	*>B	*>B	*>B	*>B	*>B
8r	8r	8r	8r	8b-'	8ryy	8ryy	8ryy	8ryy	8ryy	8ryy	8ryy	8ryy	8ryy	8ryy	8ryy
=11	=11	=11	=11	=11	=11	=11	=11	=11	=11	=11	=11	=11	=11	=11	=11
8r	8r	2r	8r	4e-	2ryy	2ryy	2ryy	2ryy	2ryy	2ryy	2ryy	2ryy	2ryy	2ryy	2ryy
8EE-'	8E-'	.	8G	.	.	.	.	.	.	.	.	.	.	.	.
8EE-'	8E-'	.	8A-	8d	.	.	.	.	.	.	.	.	.	.	.
8r	8r	.	8r	8b-	.	.	.	.	.	.	.	.	.	.	.
=12	=12	=12	=12	=12	=12	=12	=12	=12	=12	=12	=12	=12	=12	=12	=12
8r	8r	4d	8r	4f	2ryy	2ryy	2ryy	2ryy	2ryy	2ryy	2ryy	2ryy	2ryy	2ryy	2ryy
8EE-'	8E-'	.	8A-	.	.	.	.	.	.	.	.	.	.	.	.
8EE-'	8E-'	8e-	8G	8e-	.	.	.	.	.	.	.	.	.	.	.
8r	8r	8r	8r	8b-	.	.	.	.	.	.	.	.	.	.	.
=13	=13	=13	=13	=13	=13	=13	=13	=13	=13	=13	=13	=13	=13	=13	=13
8r	8r	8r	8r	4d-	2ryy	2ryy	2ryy	2ryy	2ryy	2ryy	2ryy	2ryy	2ryy	2ryy	2ryy
8FF	8F	8F	8A-	.	.	.	.	.	.	.	.	.	.	.	.
8EE	8En	8En	8G	8c	.	.	.	.	.	.	.	.	.	.	.
8r	8r	8r	8r	8cc	.	.	.	.	.	.	.	.	.	.	.
=14	=14	=14	=14	=14	=14	=14	=14	=14	=14	=14	=14	=14	=14	=14	=14
2r	2r	8r	8r	4dd-	2ryy	2ryy	2ryy	2ryy	2ryy	2ryy	2ryy	2ryy	2ryy	2ryy	2ryy
.	.	8en	8b-	.	.	.	.	.	.	.	.	.	.	.	.
.	.	8f	8a-	8cc	.	.	.	.	.	.	.	.	.	.	.
.	.	8r	8r	8ddn	.	.	.	.	.	.	.	.	.	.	.
=15	=15	=15	=15	=15	=15	=15	=15	=15	=15	=15	=15	=15	=15	=15	=15
2r	2r	8r	8r	4ee-	2ryy	2ryy	2ryy	2ryy	2ryy	2ryy	2ryy	2ryy	2ryy	2ryy	2ryy
.	.	8f#	8cc	.	.	.	.	.	.	.	.	.	.	.	.
.	.	8g	8bn	8dd	.	.	.	.	.	.	.	.	.	.	.
.	.	8r	8r	8gg	.	.	.	.	.	.	.	.	.	.	.
=16	=16	=16	=16	=16	=16	=16	=16	=16	=16	=16	=16	=16	=16	=16	=16
2r	2r	8r	8r	4ff#	2ryy	2ryy	2ryy	2ryy	2ryy	2ryy	2ryy	2ryy	2ryy	2ryy	2ryy
.	.	8A-	8c	.	.	.	.	.	.	.	.	.	.	.	.
.	.	8r	8r	8.ee-X	.	.	.	.	.	.	.	.	.	.	.
.	.	8A-	8f#	.	.	.	.	.	.	.	.	.	.	.	.
.	.	.	.	32dd	.	.	.	.	.	.	.	.	.	.	.
.	.	.	.	32cc	.	.	.	.	.	.	.	.	.	.	.
=17	=17	=17	=17	=17	=17	=17	=17	=17	=17	=17	=17	=17	=17	=17	=17
2r	2r	4G	4g	16.cc	2ryy	2ryy	2ryy	2ryy	2ryy	2ryy	2ryy	2ryy	2ryy	2ryy	2ryy
.	.	.	.	32bn	.	.	.	.	.	.	.	.	.	.	.
.	.	.	.	16.ee-	.	.	.	.	.	.	.	.	.	.	.
.	.	.	.	32dd	.	.	.	.	.	.	.	.	.	.	.
.	.	8r	8r	8dd	.	.	.	.	.	.	.	.	.	.	.
.	.	8cc	8ee-	8ff#	.	.	.	.	.	.	.	.	.	.	.
=18	=18	=18	=18	=18	=18	=18	=18	=18	=18	=18	=18	=18	=18	=18	=18
4r	4r	4bn	4dd	16.gg	2ryy	2ryy	2ryy	2ryy	2ryy	2ryy	2ryy	2ryy	2ryy	2ryy	2ryy
.	.	.	.	32ff#	.	.	.	.	.	.	.	.	.	.	.
.	.	.	.	16.aan	.	.	.	.	.	.	.	.	.	.	.
.	.	.	.	32ff#	.	.	.	.	.	.	.	.	.	.	.
8r	8r	8r	16.r	16gg'	.	.	.	.	.	.	.	.	.	.	.
.	.	.	.	32r	.	.	.	.	.	.	.	.	.	.	.
.	.	.	32a-X	32aa-	.	.	.	.	.	.	.	.	.	.	.
8GGG'	8GG'	8G'	16.g	16.gg	.	.	.	.	.	.	.	.	.	.	.
.	.	.	32fn	32ffn	.	.	.	.	.	.	.	.	.	.	.
=19	=19	=19	=19	=19	=19	=19	=19	=19	=19	=19	=19	=19	=19	=19	=19
*staff:1	*staff:1	*staff:2	*staff:3	*staff:4	*	*	*	*	*	*	*	*	*	*	*
4CC	4C	4c	16f	16ff	2ryy	2ryy	2ryy	2ryy	2ryy	2ryy	2ryy	2ryy	2ryy	2ryy	2ryy
.	.	.	16e-	16ee-	.	.	.	.	.	.	.	.	.	.	.
.	.	.	16d	16dd	.	.	.	.	.	.	.	.	.	.	.
.	.	.	16c	16cc	.	.	.	.	.	.	.	.	.	.	.
8EE-	8E-	8e-	8c	8cc	.	.	.	.	.	.	.	.	.	.	.
8FF#'	8F#'	8f#'	8c	8cc	.	.	.	.	.	.	.	.	.	.	.
=20	=20	=20	=20	=20	=20	=20	=20	=20	=20	=20	=20	=20	=20	=20	=20
8GG'	8G'	8g'	8Bn	8bn	2ryy	2ryy	2ryy	2ryy	2ryy	2ryy	2ryy	2ryy	2ryy	2ryy	2ryy
8DD'	8D'	8d'	8d	8dd	.	.	.	.	.	.	.	.	.	.	.
8BBB'	8BBn'	8Bn'	16.r	16.r	.	.	.	.	.	.	.	.	.	.	.
.	.	.	32a-X	32aa-X	.	.	.	.	.	.	.	.	.	.	.
8GGG'	8GG'	8G'	16.g	16.gg	.	.	.	.	.	.	.	.	.	.	.
.	.	.	32f	32ff	.	.	.	.	.	.	.	.	.	.	.
=21	=21	=21	=21	=21	=21	=21	=21	=21	=21	=21	=21	=21	=21	=21	=21
4CC	4C	4c	16f	16ff	2ryy	2ryy	2ryy	2ryy	2ryy	2ryy	2ryy	2ryy	2ryy	2ryy	2ryy
.	.	.	16e-	16ee-	.	.	.	.	.	.	.	.	.	.	.
.	.	.	16d	16dd	.	.	.	.	.	.	.	.	.	.	.
.	.	.	16c	16cc	.	.	.	.	.	.	.	.	.	.	.
8EE-	8E-	8e-	8cc	8ccc	.	.	.	.	.	.	.	.	.	.	.
8FF#'	8F#'	8f#'	8cc	8ee-	.	.	.	.	.	.	.	.	.	.	.
=22	=22	=22	=22	=22	=22	=22	=22	=22	=22	=22	=22	=22	=22	=22	=22
16.GG	16.G	16.g	4cc	4ee-	2ryy	2ryy	2ryy	2ryy	2ryy	2ryy	2ryy	2ryy	2ryy	2ryy	2ryy
32FF#	32F#	32f#	.	.	.	.	.	.	.	.	.	.	.	.	.
16.AA	16.An	16.an	.	.	.	.	.	.	.	.	.	.	.	.	.
32FF#	32F#	32f#	.	.	.	.	.	.	.	.	.	.	.	.	.
8GG	8G	8g	8bn	8dd	.	.	.	.	.	.	.	.	.	.	.
8r	8r	8en	8b-	8dd-	.	.	.	.	.	.	.	.	.	.	.
=23	=23	=23	=23	=23	=23	=23	=23	=23	=23	=23	=23	=23	=23	=23	=23
2r	2r	16.fn	4b-	4dd-	2ryy	2ryy	2ryy	2ryy	2ryy	2ryy	2ryy	2ryy	2ryy	2ryy	2ryy
.	.	32en	.	.	.	.	.	.	.	.	.	.	.	.	.
.	.	16.g	.	.	.	.	.	.	.	.	.	.	.	.	.
.	.	32e	.	.	.	.	.	.	.	.	.	.	.	.	.
.	.	8f	8a-	8cc	.	.	.	.	.	.	.	.	.	.	.
.	.	8d	8bn	8aa-	.	.	.	.	.	.	.	.	.	.	.
=24	=24	=24	=24	=24	=24	=24	=24	=24	=24	=24	=24	=24	=24	=24	=24
4r	4r	4.e-X	4.cc	16.aa-	2ryy	2ryy	2ryy	2ryy	2ryy	2ryy	2ryy	2ryy	2ryy	2ryy	2ryy
.	.	.	.	32ff#	.	.	.	.	.	.	.	.	.	.	.
.	.	.	.	16.gg	.	.	.	.	.	.	.	.	.	.	.
.	.	.	.	32ff#	.	.	.	.	.	.	.	.	.	.	.
8r	8r	.	.	8gg	.	.	.	.	.	.	.	.	.	.	.
8BB	8Bn	8a-	8dd	8ffn	.	.	.	.	.	.	.	.	.	.	.
=25	=25	=25	=25	=25	=25	=25	=25	=25	=25	=25	=25	=25	=25	=25	=25
4.C	4.c	16.a-	16.dd	16.ff	2ryy	2ryy	2ryy	2ryy	2ryy	2ryy	2ryy	2ryy	2ryy	2ryy	2ryy
.	.	32f#	32bn	32dd	.	.	.	.	.	.	.	.	.	.	.
.	.	16.g	16.cc	16.ee-	.	.	.	.	.	.	.	.	.	.	.
.	.	32f#	32b	32dd	.	.	.	.	.	.	.	.	.	.	.
.	.	8g'	8cc	16.ee-	.	.	.	.	.	.	.	.	.	.	.
.	.	.	.	32dd	.	.	.	.	.	.	.	.	.	.	.
8EE-'	8E-'	8e-'	8g	16.cc	.	.	.	.	.	.	.	.	.	.	.
.	.	.	.	32b-X	.	.	.	.	.	.	.	.	.	.	.
=26	=26	=26	=26	=26	=26	=26	=26	=26	=26	=26	=26	=26	=26	=26	=26
*staff:8	*staff:8	*staff:9	*staff:10	*staff:11	*	*	*	*	*staff:12	*staff:12	*staff:13	*staff:13	*staff:14	*staff:14	*
8FF'	8F'	8c'	16.a-'	16.a-'	2ryy	2ryy	2ryy	2ryy	2r	2r	2r	2r	2r	2r	2ryy
.	.	.	32cc	32cc	.	.	.	.	.	.	.	.	.	.	.
8GG'	8G'	8c'	16.g'	16.g'	.	.	.	.	.	.	.	.	.	.	.
.	.	.	32cc	32cc	.	.	.	.	.	.	.	.	.	.	.
8AA-'	8A-'	8c'	16.f'	16.f'	.	.	.	.	.	.	.	.	.	.	.
.	.	.	32cc	32cc	.	.	.	.	.	.	.	.	.	.	.
8GG'	8G'	8c'	16.e-'	16.e-'	.	.	.	.	.	.	.	.	.	.	.
.	.	.	32cc	32cc	.	.	.	.	.	.	.	.	.	.	.
=27	=27	=27	=27	=27	=27	=27	=27	=27	=27	=27	=27	=27	=27	=27	=27
4FF	4F	4F	16.d'	16.d'	2ryy	2ryy	2ryy	2ryy	2r	2r	2r	2r	2r	2r	2ryy
.	.	.	32f	32f	.	.	.	.	.	.	.	.	.	.	.
.	.	.	16.a-'	16.a-'	.	.	.	.	.	.	.	.	.	.	.
.	.	.	32f	32f	.	.	.	.	.	.	.	.	.	.	.
8GG	8G	8G	16.e-'	16.e-'	.	.	.	.	.	.	.	.	.	.	.
.	.	.	32g	32g	.	.	.	.	.	.	.	.	.	.	.
8GGG	8GG	8G	16.Bn'	16.Bn'	.	.	.	.	.	.	.	.	.	.	.
.	.	.	32d	32d	.	.	.	.	.	.	.	.	.	.	.
=28	=28	=28	=28	=28	=28	=28	=28	=28	=28	=28	=28	=28	=28	=28	=28
8r	8r	8r	8c	8c	4.ryy	4.ryy	4.ryy	4.ryy	4r	4r	4r	4r	4r	4r	4.ryy
8CC'	8C'	8c'	8r	8r	.	.	.	.	.	.	.	.	.	.	.
8CCC'	8CC'	8C'	8r	8r	.	.	.	.	8r	8r	8r	8r	8r	8r	.
=29:||:	=29:||:	=29:||:	=29:||:	=29:||:	=29:||:	=29:||:	=29:||:	=29:||:	=29:||:	=29:||:	=29:||:	=29:||:	=29:||:	=29:||:	=29:||:
*>C	*>C	*>C	*>C	*>C	*>C	*>C	*>C	*>C	*>C	*>C	*>C	*>C	*>C	*>C	*>C
*k[]	*k[]	*k[]	*k[]	*k[]	*	*	*	*	*	*	*k[]	*k[]	*k[]	*k[]	*
8r	8r	8r	8G	8G	8ryy	8ryy	8ryy	8ryy	8r	8r	8r	8r	8g	8g	8ryy
=30	=30	=30	=30	=30	=30	=30	=30	=30	=30	=30	=30	=30	=30	=30	=30
8CCC	8CC	8.Ez	8.c	8.c	2ryy	2ryy	2ryy	2ryy	4E	4c	2r	2r	8.e	8.cc	2ryy
8CC	8C	.	.	.	.	.	.	.	.	.	.	.	.	.	.
.	.	16D	16B	16d	.	.	.	.	.	.	.	.	16g	16dd	.
8CC	8C	8C	8c	8e	.	.	.	.	4ryy	4r	.	.	8cc	8ee	.
8CC	8C	8r	8d#	8f#	.	.	.	.	.	.	.	.	8dd#	8ff#	.
=31	=31	=31	=31	=31	=31	=31	=31	=31	=31	=31	=31	=31	=31	=31	=31
8CCC	8CC	2r	8.e	8.g	2ryy	2ryy	2ryy	2ryy	4E	4G	2r	2r	8.ee	8.gg	2ryy
8CC	8C	.	.	.	.	.	.	.	.	.	.	.	.	.	.
.	.	.	16fn	16a	.	.	.	.	.	.	.	.	16ffn	16aa	.
8CC	8C	.	8e	8g	.	.	.	.	4ryy	4r	.	.	8ee	8gg	.
8CC	8C	.	8B 8dn'	8fn'	.	.	.	.	.	.	.	.	8ddn'y	8ffn'	.
=32	=32	=32	=32	=32	=32	=32	=32	=32	=32	=32	=32	=32	=32	=32	=32
8CCC'	8CC'	8G'	8c'	8e'	2ryy	2ryy	2ryy	2ryy	2C	[2G	8G'	8G'	8cc'y	8ee'	2ryy
8CC'	8C'	8G'	8c'	8e'	.	.	.	.	.	.	8G'	8G'	8cc'y	8ee'	.
8CC'	8C'	8F'	8B'	8d'	.	.	.	.	.	.	8F'	8F'	8f'y	8dd'	.
8CC'	8C'	8F'	8B'	8d'	.	.	.	.	.	.	8F'	8F'	8f'y	8dd'	.
=33	=33	=33	=33	=33	=33	=33	=33	=33	=33	=33	=33	=33	=33	=33	=33
8CCC	8CC	4.E	8.cTz	8.cTz	2ryy	2ryy	2ryy	2ryy	2C	2G_	4E	4E	4e	8.ccTz	2ryy
8CC	8C	.	.	.	.	.	.	.	.	.	.	.	.	.	.
.	.	.	32B	32B	.	.	.	.	.	.	.	.	.	32b	.
.	.	.	32c	32c	.	.	.	.	.	.	.	.	.	32cc	.
8CC	8C	.	8G'	8G	.	.	.	.	.	.	4r	4r	8r	8g'	.
8CC	8C	8E'	8G'	8G	.	.	.	.	.	.	.	.	8g'	8g'	.
=34	=34	=34	=34	=34	=34	=34	=34	=34	=34	=34	=34	=34	=34	=34	=34
8CCC	8CC	8.E	8.c	8.c	2ryy	2ryy	2ryy	2ryy	4C	4G]	2r	2r	8.e	8.cc	2ryy
8CC	8C	.	.	.	.	.	.	.	.	.	.	.	.	.	.
.	.	16D	16B	16d	.	.	.	.	.	.	.	.	16g	16dd	.
8CC	8C	8C	8c	8e	.	.	.	.	4ryy	4r	.	.	8cc	8ee	.
8CC	8C	8r	8d#	8f#	.	.	.	.	.	.	.	.	8dd#	8ff#	.
=35	=35	=35	=35	=35	=35	=35	=35	=35	=35	=35	=35	=35	=35	=35	=35
*staff:1	*staff:1	*staff:2	*staff:3	*staff:4	*	*	*	*	*staff:5	*staff:5	*staff:6	*staff:6	*staff:7	*staff:7	*
8CCC	8CC	4r	8.e	8.g	2ryy	2ryy	2ryy	2ryy	2r	2r	2r	2r	8.ee	8.gg	2ryy
8CC	8C	.	.	.	.	.	.	.	.	.	.	.	.	.	.
.	.	.	16fn	16a	.	.	.	.	.	.	.	.	16ffn	16aa	.
8CC	8C	8r	8e	8g	.	.	.	.	.	.	.	.	8ee	8gg	.
8BBB	8BB	8d'	8f'	8g#'	.	.	.	.	.	.	.	.	8ff'y	8gg#'	.
=36	=36	=36	=36	=36	=36	=36	=36	=36	=36	=36	=36	=36	=36	=36	=36
8CC'	8C'	8e'	8e'	8a'	2ryy	2ryy	2ryy	2ryy	2r	2r	8c'	8c'	8ee'y	8aa'	2ryy
8CC'	8C'	8c'	8e'	8a'	.	.	.	.	.	.	8c'	8c'	8ee'y	8aa'	.
8DD'	8D'	8A'	8c'	8f#'	.	.	.	.	.	.	8A'	8A'	8a'y	8ff#'	.
8DD'	8D'	8A'	8c'	8f#'	.	.	.	.	.	.	8A'	8A'	8a'y	8ff#'	.
=37	=37	=37	=37	=37	=37	=37	=37	=37	=37	=37	=37	=37	=37	=37	=37
8GGG'	8GG'	4G	8.Btz	8.gTz	4.ryy	4.ryy	4.ryy	4.ryy	4r	4r	4G	4G	4b	8.ggTz	4.ryy
8GG'	8G'	.	.	.	.	.	.	.	.	.	.	.	.	.	.
.	.	.	32A	32f#	.	.	.	.	.	.	.	.	.	32ff#	.
.	.	.	32B	32g	.	.	.	.	.	.	.	.	.	32gg	.
8GGG'	8GG'	8r	8G	8G	.	.	.	.	8r	8r	8r	8r	8r	8g	.
=38:||:	=38:||:	=38:||:	=38:||:	=38:||:	=38:||:	=38:||:	=38:||:	=38:||:	=38:||:	=38:||:	=38:||:	=38:||:	=38:||:	=38:||:	=38:||:
*>D	*>D	*>D	*>D	*>D	*>D	*>D	*>D	*>D	*>D	*>D	*>D	*>D	*>D	*>D	*>D
8r	8r	8G	8G	8r	8ryy	8ryy	8ryy	8ryy	8r	8r	8G	8G	8r	8r	8ryy
=39	=39	=39	=39	=39	=39	=39	=39	=39	=39	=39	=39	=39	=39	=39	=39
8GGG	8GG	8.dTz	8.fnTz	4r	2ryy	2ryy	2ryy	2ryy	2G	2d	8.dTz	8.dTz	2ryy	4r	2ryy
8GG	8G	.	.	.	.	.	.	.	.	.	.	.	.	.	.
.	.	32c#	32e	.	.	.	.	.	.	.	32c#	32c#	.	.	.
.	.	32d	32f	.	.	.	.	.	.	.	32d	32d	.	.	.
8GG	8G	8G'	8d'	8r	.	.	.	.	.	.	8B'	8B'	.	8r	.
8GG	8G	8B'	8d'	8g'	.	.	.	.	.	.	8B'	8B'	.	8g'	.
=40	=40	=40	=40	=40	=40	=40	=40	=40	=40	=40	=40	=40	=40	=40	=40
8GGG	8GG	8c'	8.etz	8.ggTz	2ryy	2ryy	2ryy	2ryy	2c	2e	4c	4c	2ryy	8.ggTz	2ryy
8GG	8G	8c'	.	.	.	.	.	.	.	.	.	.	.	.	.
.	.	.	32d	32ff#	.	.	.	.	.	.	.	.	.	32ff#	.
.	.	.	32e	32gg	.	.	.	.	.	.	.	.	.	32gg	.
8GG	8G	8r	8e'	8ccc'	.	.	.	.	.	.	8r	8r	.	8ccc'	.
8GG	8G	8c'	8e'	8ccc'	.	.	.	.	.	.	8G	8G	.	8ccc'	.
=41	=41	=41	=41	=41	=41	=41	=41	=41	=41	=41	=41	=41	=41	=41	=41
8GGG	8GG	8.dTz	8.fTz	4r	2ryy	2ryy	2ryy	2ryy	2G	2d	8.dTz	8.dTz	2ryy	4r	2ryy
8GG	8G	.	.	.	.	.	.	.	.	.	.	.	.	.	.
.	.	32c#	32e	.	.	.	.	.	.	.	32c#	32c#	.	.	.
.	.	32d	32f	.	.	.	.	.	.	.	32d	32d	.	.	.
8GG	8G	8G'	8d'	8r	.	.	.	.	.	.	8B'	8B'	.	8r	.
8GG	8G	8B'	8d'	8g	.	.	.	.	.	.	8B'	8B'	.	8g'	.
=42	=42	=42	=42	=42	=42	=42	=42	=42	=42	=42	=42	=42	=42	=42	=42
8CC	8C	8c'	8.etz	8.ggTz	2ryy	2ryy	2ryy	2ryy	2c	2e	4c	4c	2ryy	8.ggTz	2ryy
8C	8c	8c'	.	.	.	.	.	.	.	.	.	.	.	.	.
.	.	.	32d	32ff#	.	.	.	.	.	.	.	.	.	32ff#	.
.	.	.	32e	32gg	.	.	.	.	.	.	.	.	.	32gg	.
8r	8r	8r	8e'	8ccc'	.	.	.	.	.	.	4r	4r	.	8ccc'	.
8EE'	8E'	8c'	8g'	8ccc'	.	.	.	.	.	.	.	.	.	8ccc'	.
=43	=43	=43	=43	=43	=43	=43	=43	=43	=43	=43	=43	=43	=43	=43	=43
16FF'	16F'	16f'	16c'	16aa'	2ryy	2ryy	2ryy	2ryy	2r	2r	2r	2r	2ryy	16aa'	2ryy
16FF'	16F'	16f'	16c'	16aa'	.	.	.	.	.	.	.	.	.	16aa'	.
8EE'	8E'	8e'	8c'	8gg'	.	.	.	.	.	.	.	.	.	8gg'	.
16AA'	16A'	16a'	16c'	16ff'	.	.	.	.	.	.	.	.	.	16ff'	.
16AA'	16A'	16a'	16c'	16ff'	.	.	.	.	.	.	.	.	.	16ff'	.
8GG'	8G'	8g'	8c'	8ee'	.	.	.	.	.	.	.	.	.	8ee'	.
=44	=44	=44	=44	=44	=44	=44	=44	=44	=44	=44	=44	=44	=44	=44	=44
*staff:14	*staff:14	*staff:15	*staff:16	*staff:17	*	*	*	*	*staff:18	*staff:18	*staff:19	*staff:19	*	*staff:20	*
16FF'	16F'	16f'	16A'	16dd'	2ryy	2ryy	2ryy	2ryy	2r	2r	2r	2r	2ryy	16dd'	2ryy
16FF'	16F'	16f'	16A'	16dd'	.	.	.	.	.	.	.	.	.	16dd'	.
8GG'	8G'	8e'	8B-'	8cc#'	.	.	.	.	.	.	.	.	.	8cc#'	.
16FF'	16F'	16f'	16A'	16dd'	.	.	.	.	.	.	.	.	.	16dd'	.
16FF'	16F'	16f'	16A'	16dd'	.	.	.	.	.	.	.	.	.	16dd'	.
8GG'	8G'	8e'	8B-'	8cc#'	.	.	.	.	.	.	.	.	.	8cc#'	.
=45	=45	=45	=45	=45	=45	=45	=45	=45	=45	=45	=45	=45	=45	=45	=45
4.FF	4.F	4.d	4.A	16dd	2ryy	2ryy	2ryy	2ryy	2r	2r	2r	2r	2ryy	16dd	2ryy
.	.	.	.	16gg#	.	.	.	.	.	.	.	.	.	16gg#	.
.	.	.	.	16bb'	.	.	.	.	.	.	.	.	.	16bb'	.
.	.	.	.	16aa'	.	.	.	.	.	.	.	.	.	16aa'	.
.	.	.	.	16ggn'	.	.	.	.	.	.	.	.	.	16ggn'	.
.	.	.	.	16ff'	.	.	.	.	.	.	.	.	.	16ff'	.
8FF#	8F#	8a	8d	16ee'	.	.	.	.	.	.	.	.	.	16ee'	.
.	.	.	.	16dd'	.	.	.	.	.	.	.	.	.	16dd'	.
=46	=46	=46	=46	=46	=46	=46	=46	=46	=46	=46	=46	=46	=46	=46	=46
*	*	*	*	*	*	*	*	*	*	*	*	*	*staff:20	*	*
4GG	4G	4g	16d	4cc	2ryy	2ryy	2ryy	2ryy	2r	2r	2r	2r	4r	4cc	2ryy
.	.	.	16f#	.	.	.	.	.	.	.	.	.	.	.	.
.	.	.	16a'	.	.	.	.	.	.	.	.	.	.	.	.
.	.	.	16f#'	.	.	.	.	.	.	.	.	.	.	.	.
4r	4r	4r	16g'	8b	.	.	.	.	.	.	.	.	8r	8b	.
.	.	.	16fn'	.	.	.	.	.	.	.	.	.	.	.	.
.	.	.	16e'	8G	.	.	.	.	.	.	.	.	8g	8g	.
.	.	.	16d'	.	.	.	.	.	.	.	.	.	.	.	.
=47	=47	=47	=47	=47	=47	=47	=47	=47	=47	=47	=47	=47	=47	=47	=47
8CCC	8CC	8.Ez	8.c	8.c	2ryy	2ryy	2ryy	2ryy	4E	4c	2r	2r	8.e	8.cc	2ryy
8CC	8C	.	.	.	.	.	.	.	.	.	.	.	.	.	.
.	.	16D	16B	16d	.	.	.	.	.	.	.	.	16g	16dd	.
8CC	8C	8C	8c	8e	.	.	.	.	4ryy	4r	.	.	8cc	8ee	.
8CC	8C	8r	8d#	8f#	.	.	.	.	.	.	.	.	8dd#	8ff#	.
=48	=48	=48	=48	=48	=48	=48	=48	=48	=48	=48	=48	=48	=48	=48	=48
8CCC	8CC	2r	8.e	8.g	2ryy	2ryy	2ryy	2ryy	2C	[2G	2r	2r	8.ee	8.gg	2ryy
8CC	8C	.	.	.	.	.	.	.	.	.	.	.	.	.	.
.	.	.	16fn	16a	.	.	.	.	.	.	.	.	16ffn	16aa	.
8CC	8C	.	8e	8g	.	.	.	.	.	.	.	.	8ee	8gg	.
8CC	8C	.	8dn'	8fn'	.	.	.	.	.	.	.	.	8ddn'y	8ffn'	.
=49	=49	=49	=49	=49	=49	=49	=49	=49	=49	=49	=49	=49	=49	=49	=49
8CCC	8CC	8G'	8c'	8e'	2ryy	2ryy	2ryy	2ryy	2C	2G_	8G'	8G'	8cc'	8ee'y	2ryy
8CC	8C	8G'	8c'	8e'	.	.	.	.	.	.	8G'	8G'	8cc'	8ee'y	.
8CC	8C	8F'	8B'	8d'	.	.	.	.	.	.	8F'	8F'	8f'	8dd'y	.
8CC	8C	8F'	8B'	8d'	.	.	.	.	.	.	8F'	8F'	8f'	8dd'y	.
=50	=50	=50	=50	=50	=50	=50	=50	=50	=50	=50	=50	=50	=50	=50	=50
4CC	4C	4.E	8.cTz	8.cTz	2ryy	2ryy	2ryy	2ryy	4C	4G]	4E	4E	4e	8.ccTz	2ryy
.	.	.	32B	32B	.	.	.	.	.	.	.	.	.	32b	.
.	.	.	32c	32c	.	.	.	.	.	.	.	.	.	32cc	.
4r	4r	.	8G'	8G'	.	.	.	.	4ryy	4r	4r	4r	4r	8g'	.
.	.	8E	8c	8c	.	.	.	.	.	.	.	.	.	8cc	.
=51	=51	=51	=51	=51	=51	=51	=51	=51	=51	=51	=51	=51	=51	=51	=51
8.AA	8.A	4.c	8.c	8.f	2ryy	2ryy	2ryy	2ryy	2r	2r	2r	2r	4.cc	8.ff	2ryy
16GG	16G	.	16B-	16g	.	.	.	.	.	.	.	.	.	16gg	.
8FF	8F	.	8A	8a	.	.	.	.	.	.	.	.	.	8aa	.
8DD'	8D'	8g'	8f'	8b'	.	.	.	.	.	.	.	.	8dd	8bb'	.
=52	=52	=52	=52	=52	=52	=52	=52	=52	=52	=52	=52	=52	=52	=52	=52
*staff:8	*staff:8	*staff:9	*staff:10	*staff:11	*	*	*	*	*staff:12	*staff:12	*	*	*staff:13	*staff:13	*
4CC	4C	4g	4e	8.cc	2ryy	2ryy	2ryy	2ryy	2r	2r	2ryy	2ryy	4ee	8.ccc	2ryy
.	.	.	.	16dd	.	.	.	.	.	.	.	.	.	16ddd	.
4r	4r	4r	4r	8ee	.	.	.	.	.	.	.	.	4r	8eee	.
.	.	.	.	8r	.	.	.	.	.	.	.	.	.	8r	.
=53	=53	=53	=53	=53	=53	=53	=53	=53	=53	=53	=53	=53	=53	=53	=53
4r	4r	4r	8.e	8.g	2ryy	2ryy	2ryy	2ryy	8.e	8.g	2ryy	2ryy	8.ee	8.gg	2ryy
.	.	.	16d	16f	.	.	.	.	16d	16f	.	.	16dd	16ff	.
8r	8r	8r	8c	8e	.	.	.	.	8c	8e	.	.	8cc	8ee	.
8GGG'	8GG'	8G'	8B'	8d'	.	.	.	.	8G'y	8d'	.	.	8b'y	8dd'	.
=54	=54	=54	=54	=54	=54	=54	=54	=54	=54	=54	=54	=54	=54	=54	=54
4CC'	4C'	4c'	4c	4c	4.ryy	4.ryy	4.ryy	4.ryy	4E	4c	4.ryy	4.ryy	4cc	4cc	4.ryy
8r	8r	8r	8r	8r	.	.	.	.	8ryy	8r	.	.	8ryy	8r	.
=55:|	=55:|	=55:|	=55:|	=55:|	=55:|	=55:|	=55:|	=55:|	=55:|	=55:|	=55:|	=55:|	=55:|	=55:|	=55:|
*>E	*>E	*>E	*>E	*>E	*>E	*>E	*>E	*>E	*>E	*>E	*>E	*>E	*>E	*>E	*>E
*k[b-e-a-]	*k[b-e-a-]	*k[b-e-a-]	*k[b-e-a-]	*k[b-e-a-]	*	*	*	*	*	*	*	*	*k[b-e-a-]	*k[b-e-a-]	*
8r	8r	8r	8G	8G	8ryy	8ryy	8ryy	8ryy	8r	8r	8ryy	8ryy	8r	8r	8ryy
=56	=56	=56	=56	=56	=56	=56	=56	=56	=56	=56	=56	=56	=56	=56	=56
8r	8r	8r	4c	4c	2ryy	2ryy	2ryy	2ryy	2r	2r	2ryy	2ryy	2r	2r	2ryy
8CCC	8CC	8C	.	.	.	.	.	.	.	.	.	.	.	.	.
8CC	8C	8c	8e-	8e-	.	.	.	.	.	.	.	.	.	.	.
8CC'	8C'	8c'	8f#	8f#'	.	.	.	.	.	.	.	.	.	.	.
=57	=57	=57	=57	=57	=57	=57	=57	=57	=57	=57	=57	=57	=57	=57	=57
4BBB	4BBn	4Bn	8g'	8g'	2ryy	2ryy	2ryy	2ryy	2r	2r	2ryy	2ryy	2r	2r	2ryy
.	.	.	8d'	8d'	.	.	.	.	.	.	.	.	.	.	.
4r	4r	4r	8Bn'	8Bn'	.	.	.	.	.	.	.	.	.	.	.
.	.	.	8G'	8G'	.	.	.	.	.	.	.	.	.	.	.
=58	=58	=58	=58	=58	=58	=58	=58	=58	=58	=58	=58	=58	=58	=58	=58
8r	8r	8r	8.c	8.c	2ryy	2ryy	2ryy	2ryy	2r	2r	2ryy	2ryy	2ryy	2ee-	2ryy
8CCC	8CC	8C	.	.	.	.	.	.	.	.	.	.	.	.	.
.	.	.	16d	16d	.	.	.	.	.	.	.	.	.	.	.
8CC	8C	8c	8e-	8e-	.	.	.	.	.	.	.	.	.	.	.
8CC'	8C'	8c'	8f#	8f#	.	.	.	.	.	.	.	.	.	.	.
=59	=59	=59	=59	=59	=59	=59	=59	=59	=59	=59	=59	=59	=59	=59	=59
4BBB	4BBn	4Bn	16.g	16.g	2ryy	2ryy	2ryy	2ryy	2r	2r	2ryy	2ryy	2ryy	8dd	2ryy
.	.	.	32f#	32f#	.	.	.	.	.	.	.	.	.	.	.
.	.	.	16.an	16.an	.	.	.	.	.	.	.	.	.	8r	.
.	.	.	32f#	32f#	.	.	.	.	.	.	.	.	.	.	.
4r	4r	4r	8g'	8g'	.	.	.	.	.	.	.	.	.	4r	.
.	.	.	8G	8G	.	.	.	.	.	.	.	.	.	.	.
=60	=60	=60	=60	=60	=60	=60	=60	=60	=60	=60	=60	=60	=60	=60	=60
8r	8r	8r	4c	4c	2ryy	2ryy	2ryy	2ryy	2r	2r	2ryy	2ryy	2ryy	4.cc	2ryy
8AAA-	8AA-	8A-	.	.	.	.	.	.	.	.	.	.	.	.	.
8AA-	8A-	8a-	8en	8en	.	.	.	.	.	.	.	.	.	.	.
8AA-'	8A-'	8a-'	8f	8f	.	.	.	.	.	.	.	.	.	8cc-	.
=61	=61	=61	=61	=61	=61	=61	=61	=61	=61	=61	=61	=61	=61	=61	=61
*staff:1	*staff:1	*staff:2	*staff:3	*staff:4	*	*	*	*	*	*	*staff:5	*staff:5	*	*staff:6	*staff:7
*	*	*	*	*	*	*	*	*	*	*	*k[b-e-a-]	*k[b-e-a-]	*	*	*
4GG	4G	4g	16.b-	16.b-	2ryy	2ryy	2ryy	2ryy	2ryy	2ryy	2r	2r	2ryy	4.b-	2r
.	.	.	32f#	32f#	.	.	.	.	.	.	.	.	.	.	.
.	.	.	16.g	16.g	.	.	.	.	.	.	.	.	.	.	.
.	.	.	32d	32d	.	.	.	.	.	.	.	.	.	.	.
8r	8r	8r	8e-'	8e-'	.	.	.	.	.	.	.	.	.	.	.
8GGG	8GG	8G	8r	8r	.	.	.	.	.	.	.	.	.	[8ee-	.
=62	=62	=62	=62	=62	=62	=62	=62	=62	=62	=62	=62	=62	=62	=62	=62
4AAA-	4AA-	4A-	16.cc	16.cc	2ryy	2ryy	2ryy	2ryy	2ryy	2ryy	2r	2r	2ryy	16.ee-]	2r
.	.	.	32g	32g	.	.	.	.	.	.	.	.	.	32een	.
.	.	.	16.a-	16.a-	.	.	.	.	.	.	.	.	.	16.ff	.
.	.	.	32en	32en	.	.	.	.	.	.	.	.	.	32gg	.
8r	8r	8r	8f'	8f'	.	.	.	.	.	.	.	.	.	8aa-'	.
8BBB-'	8BB-'	8B-'	8b-'	8b-'	.	.	.	.	.	.	.	.	.	8dd'	.
=63	=63	=63	=63	=63	=63	=63	=63	=63	=63	=63	=63	=63	=63	=63	=63
8r	8r	8r	4e-	4e-	2ryy	2ryy	2ryy	2ryy	2ryy	2ryy	2r	2r	2ryy	4ee-	2r
8EE-'	8E-'	8e-'	.	.	.	.	.	.	.	.	.	.	.	.	.
8EEE-'	8EE-'	8E-'	8r	8r	.	.	.	.	.	.	.	.	.	4r	.
8r	8r	8r	8G	8G	.	.	.	.	.	.	.	.	.	.	.
=64	=64	=64	=64	=64	=64	=64	=64	=64	=64	=64	=64	=64	=64	=64	=64
8r	8r	8r	4c	4c	2ryy	2ryy	2ryy	2ryy	2ryy	2ryy	2r	2r	2ryy	2ee-	2eee-
8CCC	8CC	8C	.	.	.	.	.	.	.	.	.	.	.	.	.
8CC	8C	8c	8e-	8e-	.	.	.	.	.	.	.	.	.	.	.
8CC'	8C'	8c'	8f#	8f#	.	.	.	.	.	.	.	.	.	.	.
=65	=65	=65	=65	=65	=65	=65	=65	=65	=65	=65	=65	=65	=65	=65	=65
4BBB	4BBn	4Bn	8g'	8g'	2ryy	2ryy	2ryy	2ryy	2ryy	2ryy	2G	2g	2ryy	8dd	8ddd
.	.	.	8d'	8d'	.	.	.	.	.	.	.	.	.	8r	8r
4r	4r	4r	8Bn'	8Bn'	.	.	.	.	.	.	.	.	.	4r	4r
.	.	.	8G'	8G'	.	.	.	.	.	.	.	.	.	.	.
=66	=66	=66	=66	=66	=66	=66	=66	=66	=66	=66	=66	=66	=66	=66	=66
8r	8r	8r	8.c	8.c	2ryy	2ryy	2ryy	2ryy	2ryy	2ryy	8E-	8e-	2ryy	2ee-	2eee-
8CCC	8CC	8C	.	.	.	.	.	.	.	.	8ryy	8r	.	.	.
.	.	.	16d	16d	.	.	.	.	.	.	.	.	.	.	.
8CC	8C	8c	8e-	8e-	.	.	.	.	.	.	4ryy	4r	.	.	.
8CC'	8C'	8c'	8f#	8f#	.	.	.	.	.	.	.	.	.	.	.
=67	=67	=67	=67	=67	=67	=67	=67	=67	=67	=67	=67	=67	=67	=67	=67
4BBB	4BBn	4Bn	16.g	16.g	2ryy	2ryy	2ryy	2ryy	2ryy	2ryy	2G	2g	2ryy	8dd	8ddd
.	.	.	32f#	32f#	.	.	.	.	.	.	.	.	.	.	.
.	.	.	16.an	16.an	.	.	.	.	.	.	.	.	.	8r	8r
.	.	.	32f#	32f#	.	.	.	.	.	.	.	.	.	.	.
4r	4r	4r	8g'	8g'	.	.	.	.	.	.	.	.	.	4r	4r
.	.	.	8G	8G	.	.	.	.	.	.	.	.	.	.	.
=68	=68	=68	=68	=68	=68	=68	=68	=68	=68	=68	=68	=68	=68	=68	=68
8r	8r	8r	4c	4c	2ryy	2ryy	2ryy	2ryy	2ryy	2ryy	8E-	8e-	2ryy	4.cc	4.ccc
8AAA-	8AA-	8A-	.	.	.	.	.	.	.	.	8ryy	8r	.	.	.
8AA-	8A-	8a-	8en	8en	.	.	.	.	.	.	4ryy	4r	.	.	.
8AA-'	8A-'	8a-'	8f	8f	.	.	.	.	.	.	.	.	.	8cc-	8ccc-
=69	=69	=69	=69	=69	=69	=69	=69	=69	=69	=69	=69	=69	=69	=69	=69
4GG	4G	4g	16.b-	16.b-	2ryy	2ryy	2ryy	2ryy	2ryy	2ryy	2r	2r	2ryy	4.b-	4.bb-
.	.	.	32f#	32f#	.	.	.	.	.	.	.	.	.	.	.
.	.	.	16.g	16.g	.	.	.	.	.	.	.	.	.	.	.
.	.	.	32d	32d	.	.	.	.	.	.	.	.	.	.	.
8r	8r	8r	8e-'	8e-'	.	.	.	.	.	.	.	.	.	.	.
8GGG	8GG	8G	8r	8r	.	.	.	.	.	.	.	.	.	[8ee-	[8eee-
=70	=70	=70	=70	=70	=70	=70	=70	=70	=70	=70	=70	=70	=70	=70	=70
*staff:8	*staff:8	*staff:9	*staff:10	*staff:11	*	*	*	*	*	*	*staff:12	*staff:12	*	*staff:13	*staff:14
4AAA-	4AA-	4A-	16.cc	16.cc	2ryy	2ryy	2ryy	2ryy	2ryy	2ryy	2r	2r	2ryy	16.ee-]	16.eee-]
.	.	.	32g	32g	.	.	.	.	.	.	.	.	.	32een	32een
.	.	.	16.a-	16.a-	.	.	.	.	.	.	.	.	.	16.ff	16.ff
.	.	.	32en	32en	.	.	.	.	.	.	.	.	.	32gg	32gg
8r	8r	8r	8f'	8f'	.	.	.	.	.	.	.	.	.	8aa-	8aa-
8BBB-	8BB-	8A- 8d	8b-'	8b-'	.	.	.	.	.	.	.	.	.	8dd	8dd
=71	=71	=71	=71	=71	=71	=71	=71	=71	=71	=71	=71	=71	=71	=71	=71
8r	8r	4G 4e-	8e-	8e-	2ryy	2ryy	2ryy	2ryy	2ryy	2ryy	16.r	16.r	2ryy	8ee-	8ee-
.	.	.	.	.	.	.	.	.	.	.	32E-	32E-	.	.	.
8EE-	8E-	.	8r	8r	.	.	.	.	.	.	16.G	16.G	.	8r	8r
.	.	.	.	.	.	.	.	.	.	.	32B-	32B-	.	.	.
8EEE-	8EE-	4r	4r	8r	.	.	.	.	.	.	8e-	8e-	.	4r	4r
8r	8r	.	.	8b-	.	.	.	.	.	.	8r	8r	.	.	.
=72	=72	=72	=72	=72	=72	=72	=72	=72	=72	=72	=72	=72	=72	=72	=72
8r	8r	2r	8r	4e-	2ryy	2ryy	2ryy	2ryy	2ryy	2ryy	4G	4G	2ryy	2r	16.bb-
.	.	.	.	.	.	.	.	.	.	.	.	.	.	.	32ccc
8EE-	8E-	.	8G	.	.	.	.	.	.	.	.	.	.	.	16.bb-
.	.	.	.	.	.	.	.	.	.	.	.	.	.	.	32ccc
8EE-	8E-	.	8A-	8d	.	.	.	.	.	.	8A-	8A-	.	.	8bb-'
8r	8r	.	8r	8b-	.	.	.	.	.	.	8r	8r	.	.	8r
=73	=73	=73	=73	=73	=73	=73	=73	=73	=73	=73	=73	=73	=73	=73	=73
8r	8r	4d	8r	4f	2ryy	2ryy	2ryy	2ryy	2ryy	2ryy	4d	4d	2ryy	4a-	16.bb-
.	.	.	.	.	.	.	.	.	.	.	.	.	.	.	32ccc
8EE-	8E-	.	8A-	.	.	.	.	.	.	.	.	.	.	.	16.bb-
.	.	.	.	.	.	.	.	.	.	.	.	.	.	.	32ccc
8EE-	8E-	8e-	8G	8e-	.	.	.	.	.	.	8e-	8e-	.	8g	8bb-'
8r	8r	8r	8r	8b-	.	.	.	.	.	.	8r	8r	.	8r	8r
=74	=74	=74	=74	=74	=74	=74	=74	=74	=74	=74	=74	=74	=74	=74	=74
8r	8r	2r	8r	4d-	2ryy	2ryy	2ryy	2ryy	2ryy	2ryy	2r	2r	2ryy	2r	16.bb-
.	.	.	.	.	.	.	.	.	.	.	.	.	.	.	32ccc
8FF	8F	.	8A-	.	.	.	.	.	.	.	.	.	.	.	16.bb-
.	.	.	.	.	.	.	.	.	.	.	.	.	.	.	32ddd-
8EE	8En	.	8G	8c	.	.	.	.	.	.	.	.	.	.	8ccc'
8r	8r	.	8r	8cc	.	.	.	.	.	.	.	.	.	.	8r
=75	=75	=75	=75	=75	=75	=75	=75	=75	=75	=75	=75	=75	=75	=75	=75
2r	2r	8r	8r	4dd-	2ryy	2ryy	2ryy	2ryy	2ryy	2ryy	2ryy	4en	2ryy	2r	16.gg
.	.	.	.	.	.	.	.	.	.	.	.	.	.	.	32aa-
.	.	8en	8b-	.	.	.	.	.	.	.	.	.	.	.	16.gg
.	.	.	.	.	.	.	.	.	.	.	.	.	.	.	32bb-
.	.	8f	8a-	8cc	.	.	.	.	.	.	.	8f	.	.	8aa-'
.	.	8r	8r	8ddn	.	.	.	.	.	.	.	8r	.	.	8r
=76	=76	=76	=76	=76	=76	=76	=76	=76	=76	=76	=76	=76	=76	=76	=76
2r	2r	8r	8r	4ee-	2ryy	2ryy	2ryy	2ryy	2ryy	2ryy	2ryy	4f#	2ryy	2r	16.aan
.	.	.	.	.	.	.	.	.	.	.	.	.	.	.	32bbn
.	.	8f#	8cc	.	.	.	.	.	.	.	.	.	.	.	16.aa
.	.	.	.	.	.	.	.	.	.	.	.	.	.	.	32ccc
.	.	8g	8bn	8dd	.	.	.	.	.	.	.	8g	.	.	8bb'
.	.	8r	8r	8gg	.	.	.	.	.	.	.	8r	.	.	8gg'
=77	=77	=77	=77	=77	=77	=77	=77	=77	=77	=77	=77	=77	=77	=77	=77
2r	2r	8r	8r	4ff#^	2ryy	2ryy	2ryy	2ryy	2ryy	2ryy	2ryy	8A-	2ryy	2r	4eee-X
.	.	8A-	8c	.	.	.	.	.	.	.	.	8r	.	.	.
.	.	8r	8r	8.ee-X^	.	.	.	.	.	.	.	8A-	.	.	4ff#
.	.	8A-	8e-	.	.	.	.	.	.	.	.	8r	.	.	.
.	.	.	.	32dd	.	.	.	.	.	.	.	.	.	.	.
.	.	.	.	32cc	.	.	.	.	.	.	.	.	.	.	.
=78	=78	=78	=78	=78	=78	=78	=78	=78	=78	=78	=78	=78	=78	=78	=78
*staff:1	*staff:1	*staff:2	*staff:3	*staff:4	*	*	*	*	*	*	*	*staff:5	*	*staff:6	*staff:7
2r	2r	4G	16.e-	16.cc	2ryy	2ryy	2ryy	2ryy	2ryy	2ryy	2ryy	4.G	2ryy	4r	4.gg
.	.	.	32d	32bn	.	.	.	.	.	.	.	.	.	.	.
.	.	.	16.c	16.ee-	.	.	.	.	.	.	.	.	.	.	.
.	.	.	32Bn	32dd	.	.	.	.	.	.	.	.	.	.	.
.	.	8r	8B'	8dd'	.	.	.	.	.	.	.	.	.	8r	.
.	.	8cc	8ee-	8ff#	.	.	.	.	.	.	.	8r	.	8cc	8ff#
=79	=79	=79	=79	=79	=79	=79	=79	=79	=79	=79	=79	=79	=79	=79	=79
2r	2r	4bn	4dd	16.gg	2ryy	2ryy	2ryy	2ryy	2ryy	2ryy	2ryy	4r	2ryy	4bn	16.gg
.	.	.	.	32ff#	.	.	.	.	.	.	.	.	.	.	32ff#
.	.	.	.	16.aan	.	.	.	.	.	.	.	.	.	.	16.aan
.	.	.	.	32ff#	.	.	.	.	.	.	.	.	.	.	32ff#
.	.	8r	16.r	16.gg'	.	.	.	.	.	.	.	8r	.	4r	8gg
.	.	.	32a-X	32aa-	.	.	.	.	.	.	.	.	.	.	.
*	*	*	*	*	*	*	*	*	*	*	*	*clefC4	*	*	*
.	.	8G'	16.g	16.gg	.	.	.	.	.	.	.	8G	.	.	8r
.	.	.	32fn	32ffn	.	.	.	.	.	.	.	.	.	.	.
=80	=80	=80	=80	=80	=80	=80	=80	=80	=80	=80	=80	=80	=80	=80	=80
2ryy	4r	4c	16f	16ff	2ryy	2ryy	2ryy	2ryy	2ryy	2ryy	2ryy	4c	2ryy	2r	2r
.	.	.	16e-	16ee-	.	.	.	.	.	.	.	.	.	.	.
.	.	.	16d	16dd	.	.	.	.	.	.	.	.	.	.	.
.	.	.	16c	16cc	.	.	.	.	.	.	.	.	.	.	.
.	8.AA-T	8e-	8c	8cc	.	.	.	.	.	.	.	8e-	.	.	.
.	.	8f#'	8c	8cc	.	.	.	.	.	.	.	8f#'	.	.	.
.	32GG	.	.	.	.	.	.	.	.	.	.	.	.	.	.
.	32AA-	.	.	.	.	.	.	.	.	.	.	.	.	.	.
=81	=81	=81	=81	=81	=81	=81	=81	=81	=81	=81	=81	=81	=81	=81	=81
2ryy	4GG	8g'	8Bn	8bn	2ryy	2ryy	2ryy	2ryy	2ryy	2ryy	2ryy	8g'	2ryy	2r	2r
.	.	8d'	8d	8dd	.	.	.	.	.	.	.	8d'	.	.	.
.	4r	8Bn'	16.r	16.r	.	.	.	.	.	.	.	8Bn'	.	.	.
.	.	.	32a-	32aa-	.	.	.	.	.	.	.	.	.	.	.
.	.	8G'	16.g	16.gg	.	.	.	.	.	.	.	8G'	.	.	.
.	.	.	32f	32ff	.	.	.	.	.	.	.	.	.	.	.
=82	=82	=82	=82	=82	=82	=82	=82	=82	=82	=82	=82	=82	=82	=82	=82
2ryy	4r	8.c	16f	16ff	2ryy	2ryy	2ryy	2ryy	2ryy	2ryy	2ryy	8.c	2ryy	2r	2r
.	.	.	16e-	16ee-	.	.	.	.	.	.	.	.	.	.	.
.	.	.	16d	16dd	.	.	.	.	.	.	.	.	.	.	.
.	.	16d	16c	16cc	.	.	.	.	.	.	.	16d	.	.	.
.	8.AA-T	8e-	8cc	8ccc	.	.	.	.	.	.	.	8e-	.	.	.
.	.	8f#	8cc	8ee-	.	.	.	.	.	.	.	8f#	.	.	.
.	32GG	.	.	.	.	.	.	.	.	.	.	.	.	.	.
.	32AA-	.	.	.	.	.	.	.	.	.	.	.	.	.	.
=83	=83	=83	=83	=83	=83	=83	=83	=83	=83	=83	=83	=83	=83	=83	=83
2ryy	4GG	16.g	4cc	4ee-	2ryy	2ryy	2ryy	2ryy	2ryy	2ryy	2ryy	16.g	2ryy	2r	2r
.	.	32f#	.	.	.	.	.	.	.	.	.	32f#	.	.	.
.	.	16.an	.	.	.	.	.	.	.	.	.	16.an	.	.	.
.	.	32f#	.	.	.	.	.	.	.	.	.	32f#	.	.	.
.	4r	8g	8bn	8dd	.	.	.	.	.	.	.	8g	.	.	.
.	.	8en	8b-	8dd-	.	.	.	.	.	.	.	8en	.	.	.
=84	=84	=84	=84	=84	=84	=84	=84	=84	=84	=84	=84	=84	=84	=84	=84
2r	2r	16.fn	4b-	4dd-	2ryy	2ryy	2ryy	2ryy	2ryy	2ryy	2ryy	16.fn	2ryy	4r	2r
.	.	32en	.	.	.	.	.	.	.	.	.	32en	.	.	.
.	.	16.g	.	.	.	.	.	.	.	.	.	16.g	.	.	.
.	.	32e	.	.	.	.	.	.	.	.	.	32e	.	.	.
.	.	8f	8a-	8cc	.	.	.	.	.	.	.	8f	.	8r	.
.	.	8d	8bn	8aa-	.	.	.	.	.	.	.	8d	.	8ff	.
=85	=85	=85	=85	=85	=85	=85	=85	=85	=85	=85	=85	=85	=85	=85	=85
*staff:13	*staff:13	*staff:14	*staff:15	*staff:16	*	*	*	*	*	*	*	*staff:17	*	*staff:18	*staff:19
4r	4r	4.e-X	4.cc	16.aa-	2ryy	2ryy	2ryy	2ryy	2ryy	2ryy	2ryy	4.e-X	2ryy	16.ff	4r
.	.	.	.	32ff#	.	.	.	.	.	.	.	.	.	32dd	.
.	.	.	.	16.gg	.	.	.	.	.	.	.	.	.	16.ee-	.
.	.	.	.	32ff#	.	.	.	.	.	.	.	.	.	32dd	.
8r	8r	.	.	8gg'	.	.	.	.	.	.	.	.	.	8ee-	8r
*	*	*	*	*	*	*	*	*	*	*	*	*clefF4	*	*	*
8BB	8Bn	8a-	8dd	8ffn'	.	.	.	.	.	.	.	8Bn	.	8a-X	8ddd
=86	=86	=86	=86	=86	=86	=86	=86	=86	=86	=86	=86	=86	=86	=86	=86
4.C	4.c	16.a-	16.dd	16.ff	2ryy	2ryy	2ryy	2ryy	2ryy	2ryy	2ryy	4.c	2ryy	16.a-	16.ddd
.	.	32f#	32bn	32dd	.	.	.	.	.	.	.	.	.	32f#	32bbn
.	.	16.g	16.cc	16.ee-	.	.	.	.	.	.	.	.	.	16.g	16.ccc
.	.	32f#	32b	32dd	.	.	.	.	.	.	.	.	.	32f#	32bb
.	.	8g	8cc	16.ee-	.	.	.	.	.	.	.	.	.	8g	8ccc'
.	.	.	.	32dd	.	.	.	.	.	.	.	.	.	.	.
8EE-'	8E-'	8e-'	8g'	16.cc	.	.	.	.	.	.	.	8E-'	.	8cc'	8ccc'
.	.	.	.	32b-X	.	.	.	.	.	.	.	.	.	.	.
=87	=87	=87	=87	=87	=87	=87	=87	=87	=87	=87	=87	=87	=87	=87	=87
8FF'	8F'	8f'	16.a-'	16.a-'	2ryy	2ryy	2ryy	2ryy	2ryy	2ryy	2ryy	16.F'	2ryy	16.cc'	16.ccc'
.	.	.	32cc	32cc	.	.	.	.	.	.	.	32F'	.	32cc'	32ccc'
8GG'	8G'	8g'	16.g'	16.g'	.	.	.	.	.	.	.	16.G'	.	16.cc'	16.ccc'
.	.	.	32cc	32cc	.	.	.	.	.	.	.	32G'	.	32cc'	32ccc'
8AA-'	8A-'	8a-'	16.f'	16.f'	.	.	.	.	.	.	.	16.A-'	.	16.cc'	16.ccc'
.	.	.	32cc	32cc	.	.	.	.	.	.	.	32A-'	.	32cc'	32ccc'
8GG'	8G'	8g'	16.e-'	16.e-'	.	.	.	.	.	.	.	16.G'	.	16.cc'	16.ccc'
.	.	.	32cc	32cc	.	.	.	.	.	.	.	32G'	.	32cc'	32ccc'
=88	=88	=88	=88	=88	=88	=88	=88	=88	=88	=88	=88	=88	=88	=88	=88
4FF	4F	4f	16.d'	16.d'	2ryy	2ryy	2ryy	2ryy	2ryy	2ryy	2ryy	4F	2ryy	16.dd	16.ccc
.	.	.	32f	32f	.	.	.	.	.	.	.	.	.	32dd	32ccc
.	.	.	16.a-'	16.a-'	.	.	.	.	.	.	.	.	.	16.dd	16.aa-
.	.	.	32f	32f	.	.	.	.	.	.	.	.	.	32dd	32ff
8GG	8G	8g	16.e-'	16.e-'	.	.	.	.	.	.	.	8G'	.	16.cc	16.ee-
.	.	.	32g	32g	.	.	.	.	.	.	.	.	.	32ee-	32gg
8GGG	8GG	8G	16.Bn'	16.Bn'	.	.	.	.	.	.	.	8GG'	.	16.dd	16.ff
.	.	.	32d	32d	.	.	.	.	.	.	.	.	.	32bn	32dd
=89	=89	=89	=89	=89	=89	=89	=89	=89	=89	=89	=89	=89	=89	=89	=89
8r	8r	8r	8c	8c	4.ryy	4.ryy	4.ryy	4.ryy	4.ryy	4.ryy	4.ryy	16.r	4.ryy	4cc	4cc
.	.	.	.	.	.	.	.	.	.	.	.	32C	.	.	.
8CC'	8C'	8c'	8r	8r	.	.	.	.	.	.	.	16.E-	.	.	.
.	.	.	.	.	.	.	.	.	.	.	.	32G	.	.	.
8CCC'	8CC'	8C'	8r	8r	.	.	.	.	.	.	.	8c	.	8r	8r
=90|:	=90|:	=90|:	=90|:	=90|:	=90|:	=90|:	=90|:	=90|:	=90|:	=90|:	=90|:	=90|:	=90|:	=90|:	=90|:
*>F	*>F	*>F	*>F	*>F	*>F	*>F	*>F	*>F	*>F	*>F	*>F	*>F	*>F	*>F	*>F
!	!	!	!	!	!layout:Violino_Solo.lyo	!	!	!	!	!	!	!	!	!	!
*staff:8	*staff:8	*staff:9	*staff:10	*staff:11	*staff:12	*	*	*	*	*	*	*	*	*	*
*	*	*	*	*	*clefG2	*	*	*	*	*	*	*	*	*	*
8r	8r	8r	8r	8G	8g	8ryy	8ryy	8ryy	8ryy	8ryy	8ryy	8ryy	8ryy	8ryy	8ryy
=91	=91	=91	=91	=91	=91	=91	=91	=91	=91	=91	=91	=91	=91	=91	=91
8CCC	8CC	8C	4G	8.e	8.ccS	2ryy	2ryy	2ryy	2ryy	2ryy	2ryy	2ryy	2ryy	2ryy	2ryy
8CC	8C	8c	.	.	.	.	.	.	.	.	.	.	.	.	.
.	.	.	.	16f	16dd	.	.	.	.	.	.	.	.	.	.
8CC	8C	8c	8e	8g	8ee	.	.	.	.	.	.	.	.	.	.
8CC	8C	8c	8d#	8f#	8ff#	.	.	.	.	.	.	.	.	.	.
=92	=92	=92	=92	=92	=92	=92	=92	=92	=92	=92	=92	=92	=92	=92	=92
4CC	4C	4c	4e	4g	24gg	2ryy	2ryy	2ryy	2ryy	2ryy	2ryy	2ryy	2ryy	2ryy	2ryy
.	.	.	.	.	24eee	.	.	.	.	.	.	.	.	.	.
.	.	.	.	.	24ddd	.	.	.	.	.	.	.	.	.	.
.	.	.	.	.	24ccc	.	.	.	.	.	.	.	.	.	.
.	.	.	.	.	24bb	.	.	.	.	.	.	.	.	.	.
.	.	.	.	.	24aa	.	.	.	.	.	.	.	.	.	.
4r	4r	4r	8r	8r	8gg	.	.	.	.	.	.	.	.	.	.
.	.	.	8fn'	8a'	24ffn	.	.	.	.	.	.	.	.	.	.
.	.	.	.	.	24gg	.	.	.	.	.	.	.	.	.	.
.	.	.	.	.	24aa	.	.	.	.	.	.	.	.	.	.
=93	=93	=93	=93	=93	=93	=93	=93	=93	=93	=93	=93	=93	=93	=93	=93
8CC	8C	8c	8e'	8g'	24ee'	2ryy	2ryy	2ryy	2ryy	2ryy	2ryy	2ryy	2ryy	2ryy	2ryy
.	.	.	.	.	24ff'	.	.	.	.	.	.	.	.	.	.
.	.	.	.	.	24gg'	.	.	.	.	.	.	.	.	.	.
8CC	8C	8c	8e'	8g'	24ee'	.	.	.	.	.	.	.	.	.	.
.	.	.	.	.	24ff'	.	.	.	.	.	.	.	.	.	.
.	.	.	.	.	24gg'	.	.	.	.	.	.	.	.	.	.
8CC	8C	8c	8d'	8f'	24dd'	.	.	.	.	.	.	.	.	.	.
.	.	.	.	.	24ee'	.	.	.	.	.	.	.	.	.	.
.	.	.	.	.	24ff'	.	.	.	.	.	.	.	.	.	.
8CC	8C	8c	8d'	8f'	24dd'	.	.	.	.	.	.	.	.	.	.
.	.	.	.	.	24ee'	.	.	.	.	.	.	.	.	.	.
.	.	.	.	.	24ff'	.	.	.	.	.	.	.	.	.	.
=94	=94	=94	=94	=94	=94	=94	=94	=94	=94	=94	=94	=94	=94	=94	=94
4CC	4C	4c	4c'	4e'	24cc'	2ryy	2ryy	2ryy	2ryy	2ryy	2ryy	2ryy	2ryy	2ryy	2ryy
.	.	.	.	.	24ee'	.	.	.	.	.	.	.	.	.	.
.	.	.	.	.	24dd'	.	.	.	.	.	.	.	.	.	.
.	.	.	.	.	24cc'	.	.	.	.	.	.	.	.	.	.
.	.	.	.	.	24b'	.	.	.	.	.	.	.	.	.	.
.	.	.	.	.	24a'	.	.	.	.	.	.	.	.	.	.
4r	4r	4r	8r	8r	24g'	.	.	.	.	.	.	.	.	.	.
.	.	.	.	.	24a'	.	.	.	.	.	.	.	.	.	.
.	.	.	.	.	24g'	.	.	.	.	.	.	.	.	.	.
.	.	.	8G'	8d'	24f'	.	.	.	.	.	.	.	.	.	.
.	.	.	.	.	24e'	.	.	.	.	.	.	.	.	.	.
.	.	.	.	.	24d'	.	.	.	.	.	.	.	.	.	.
=95	=95	=95	=95	=95	=95	=95	=95	=95	=95	=95	=95	=95	=95	=95	=95
8CC	8C	8c	8.c	8.e	24c	2ryy	2ryy	2ryy	2ryy	2ryy	2ryy	2ryy	2ryy	2ryy	2ryy
.	.	.	.	.	24e	.	.	.	.	.	.	.	.	.	.
.	.	.	.	.	24g	.	.	.	.	.	.	.	.	.	.
8CC	8C	8c	.	.	24b	.	.	.	.	.	.	.	.	.	.
.	.	.	.	.	24cc	.	.	.	.	.	.	.	.	.	.
.	.	.	16d	16f	.	.	.	.	.	.	.	.	.	.	.
.	.	.	.	.	24dd	.	.	.	.	.	.	.	.	.	.
8CC	8C	8c	8e'	8g'	24ee	.	.	.	.	.	.	.	.	.	.
.	.	.	.	.	24gg	.	.	.	.	.	.	.	.	.	.
.	.	.	.	.	24ee	.	.	.	.	.	.	.	.	.	.
8CC	8C	8c	8d#'	8f#'	24ff#	.	.	.	.	.	.	.	.	.	.
.	.	.	.	.	24aa	.	.	.	.	.	.	.	.	.	.
.	.	.	.	.	24ff#	.	.	.	.	.	.	.	.	.	.
=96	=96	=96	=96	=96	=96	=96	=96	=96	=96	=96	=96	=96	=96	=96	=96
4CC	4C	4c	4e	4g	24gg	2ryy	2ryy	2ryy	2ryy	2ryy	2ryy	2ryy	2ryy	2ryy	2ryy
.	.	.	.	.	24ccc	.	.	.	.	.	.	.	.	.	.
.	.	.	.	.	24bb	.	.	.	.	.	.	.	.	.	.
.	.	.	.	.	24ccc	.	.	.	.	.	.	.	.	.	.
.	.	.	.	.	24bb	.	.	.	.	.	.	.	.	.	.
.	.	.	.	.	24aa	.	.	.	.	.	.	.	.	.	.
8r	8r	8r	8r	8r	24gg	.	.	.	.	.	.	.	.	.	.
.	.	.	.	.	24gg	.	.	.	.	.	.	.	.	.	.
.	.	.	.	.	24gg	.	.	.	.	.	.	.	.	.	.
8BBB'	8BB'	8B'	8dn'	8fn'	24gg#	.	.	.	.	.	.	.	.	.	.
.	.	.	.	.	24gg#	.	.	.	.	.	.	.	.	.	.
.	.	.	.	.	24gg#	.	.	.	.	.	.	.	.	.	.
=97	=97	=97	=97	=97	=97	=97	=97	=97	=97	=97	=97	=97	=97	=97	=97
*staff:1	*staff:1	*staff:2	*staff:3	*staff:4	*staff:5	*	*	*	*staff:6	*staff:6	*staff:7	*staff:7	*	*	*
8CC'	8C'	8c'	8c'	8e'	24aa	2ryy	2ryy	2ryy	2r	2r	2r	2r	2ryy	2ryy	2ryy
.	.	.	.	.	24ee	.	.	.	.	.	.	.	.	.	.
.	.	.	.	.	24dd	.	.	.	.	.	.	.	.	.	.
8r	8r	8r	8r	8r	24cc	.	.	.	.	.	.	.	.	.	.
.	.	.	.	.	24b	.	.	.	.	.	.	.	.	.	.
.	.	.	.	.	24a	.	.	.	.	.	.	.	.	.	.
8DD'	8D'	8d'	8A'	8f#'	24g	.	.	.	.	.	.	.	.	.	.
.	.	.	.	.	24f#	.	.	.	.	.	.	.	.	.	.
.	.	.	.	.	24a	.	.	.	.	.	.	.	.	.	.
8r	8r	8r	8r	8r	24cc	.	.	.	.	.	.	.	.	.	.
.	.	.	.	.	24dd	.	.	.	.	.	.	.	.	.	.
.	.	.	.	.	24ff#X	.	.	.	.	.	.	.	.	.	.
=98	=98	=98	=98	=98	=98	=98	=98	=98	=98	=98	=98	=98	=98	=98	=98
4GGG	4GG	4G	4B'	4g'	24gg	4.ryy	4.ryy	4.ryy	4r	4r	4r	4r	4.ryy	4.ryy	4.ryy
.	.	.	.	.	24dd	.	.	.	.	.	.	.	.	.	.
.	.	.	.	.	24b	.	.	.	.	.	.	.	.	.	.
.	.	.	.	.	24g	.	.	.	.	.	.	.	.	.	.
.	.	.	.	.	24d	.	.	.	.	.	.	.	.	.	.
.	.	.	.	.	24B	.	.	.	.	.	.	.	.	.	.
8r	8r	8r	8r	8r	8G	.	.	.	8r	8r	8r	8r	.	.	.
=99:||:	=99:||:	=99:||:	=99:||:	=99:||:	=99:||:	=99:||:	=99:||:	=99:||:	=99:||:	=99:||:	=99:||:	=99:||:	=99:||:	=99:||:	=99:||:
*>G	*>G	*>G	*>G	*>G	*>G	*>G	*>G	*>G	*>G	*>G	*>G	*>G	*>G	*>G	*>G
8r	8r	8r	8r	8r	8gg	8ryy	8ryy	8ryy	8r	8r	8r	8r	8ryy	8ryy	8ryy
=100	=100	=100	=100	=100	=100	=100	=100	=100	=100	=100	=100	=100	=100	=100	=100
8r	8r	8r	8r	8r	24ffn	2ryy	2ryy	2ryy	2G	2d	2B	2f	2ryy	2ryy	2ryy
.	.	.	.	.	24dd	.	.	.	.	.	.	.	.	.	.
.	.	.	.	.	24ff	.	.	.	.	.	.	.	.	.	.
8GG'	8G'	8d'	8B'	8fn'	24dd	.	.	.	.	.	.	.	.	.	.
.	.	.	.	.	24b	.	.	.	.	.	.	.	.	.	.
.	.	.	.	.	24dd	.	.	.	.	.	.	.	.	.	.
8GG'	8G'	8d'	8B'	8f'	24b	.	.	.	.	.	.	.	.	.	.
.	.	.	.	.	24g	.	.	.	.	.	.	.	.	.	.
.	.	.	.	.	24dd	.	.	.	.	.	.	.	.	.	.
8GG'	8G'	8d'	8B'	8f'	24b	.	.	.	.	.	.	.	.	.	.
.	.	.	.	.	24f	.	.	.	.	.	.	.	.	.	.
.	.	.	.	.	24dd	.	.	.	.	.	.	.	.	.	.
=101	=101	=101	=101	=101	=101	=101	=101	=101	=101	=101	=101	=101	=101	=101	=101
8r	8r	8r	8r	8r	24e	2ryy	2ryy	2ryy	2c	2e	2c	2e	2ryy	2ryy	2ryy
.	.	.	.	.	24g	.	.	.	.	.	.	.	.	.	.
.	.	.	.	.	24b	.	.	.	.	.	.	.	.	.	.
8GG'	8G'	8g'	8c'	8e'	24cc	.	.	.	.	.	.	.	.	.	.
.	.	.	.	.	24ee	.	.	.	.	.	.	.	.	.	.
.	.	.	.	.	24gg	.	.	.	.	.	.	.	.	.	.
8GG'	8G'	8g'	8c'	8e'	24ccc	.	.	.	.	.	.	.	.	.	.
.	.	.	.	.	24gg	.	.	.	.	.	.	.	.	.	.
.	.	.	.	.	24ff	.	.	.	.	.	.	.	.	.	.
8GG'	8G'	8g'	8c'	8e'	24ee	.	.	.	.	.	.	.	.	.	.
.	.	.	.	.	24dd	.	.	.	.	.	.	.	.	.	.
.	.	.	.	.	24cc	.	.	.	.	.	.	.	.	.	.
=102	=102	=102	=102	=102	=102	=102	=102	=102	=102	=102	=102	=102	=102	=102	=102
8r	8r	8r	8r	8r	24b	2ryy	2ryy	2ryy	2G	2d	2B	2f	2ryy	2ryy	2ryy
.	.	.	.	.	24dd	.	.	.	.	.	.	.	.	.	.
.	.	.	.	.	24cc#	.	.	.	.	.	.	.	.	.	.
8GG'	8G'	8g'	8B'	8f'	24ee	.	.	.	.	.	.	.	.	.	.
.	.	.	.	.	24dd	.	.	.	.	.	.	.	.	.	.
.	.	.	.	.	24ff	.	.	.	.	.	.	.	.	.	.
8GG'	8G'	8g'	8B'	8f'	24ee	.	.	.	.	.	.	.	.	.	.
.	.	.	.	.	24gg	.	.	.	.	.	.	.	.	.	.
.	.	.	.	.	24ff	.	.	.	.	.	.	.	.	.	.
8GG'	8G'	8g'	8B'	8f'	24aa	.	.	.	.	.	.	.	.	.	.
.	.	.	.	.	24gg	.	.	.	.	.	.	.	.	.	.
.	.	.	.	.	24ff	.	.	.	.	.	.	.	.	.	.
=103	=103	=103	=103	=103	=103	=103	=103	=103	=103	=103	=103	=103	=103	=103	=103
*staff:7	*staff:7	*staff:8	*staff:9	*staff:10	*staff:11	*	*	*	*staff:12	*staff:12	*staff:13	*staff:13	*	*	*
8CC'	8C'	8c'	8c'	8e'	24ee	2ryy	2ryy	2ryy	4c	4e	4c	4e	2ryy	2ryy	2ryy
.	.	.	.	.	24cc	.	.	.	.	.	.	.	.	.	.
.	.	.	.	.	24dd	.	.	.	.	.	.	.	.	.	.
8r	8r	8r	8r	8r	24ee	.	.	.	.	.	.	.	.	.	.
.	.	.	.	.	24ff	.	.	.	.	.	.	.	.	.	.
.	.	.	.	.	24ff#	.	.	.	.	.	.	.	.	.	.
8EE	8E	8e	8c	8g	24gg	.	.	.	4ryy	4r	4ryy	4r	.	.	.
.	.	.	.	.	24cc	.	.	.	.	.	.	.	.	.	.
.	.	.	.	.	24dd	.	.	.	.	.	.	.	.	.	.
8r	8r	8r	8r	8r	24ee	.	.	.	.	.	.	.	.	.	.
.	.	.	.	.	24ffn	.	.	.	.	.	.	.	.	.	.
.	.	.	.	.	24gg	.	.	.	.	.	.	.	.	.	.
=104	=104	=104	=104	=104	=104	=104	=104	=104	=104	=104	=104	=104	=104	=104	=104
8FF'	8F'	8f'	8c'	8a'	24aa	2ryy	2ryy	2ryy	2r	2r	2r	2r	2ryy	2ryy	2ryy
.	.	.	.	.	24cc	.	.	.	.	.	.	.	.	.	.
.	.	.	.	.	24aa	.	.	.	.	.	.	.	.	.	.
8EE'	8E'	8e'	8c'	8g'	24gg	.	.	.	.	.	.	.	.	.	.
.	.	.	.	.	24cc	.	.	.	.	.	.	.	.	.	.
.	.	.	.	.	24gg	.	.	.	.	.	.	.	.	.	.
8AA'	8A'	8a'	8c'	8f'	24ff	.	.	.	.	.	.	.	.	.	.
.	.	.	.	.	24cc	.	.	.	.	.	.	.	.	.	.
.	.	.	.	.	24ff	.	.	.	.	.	.	.	.	.	.
8GG'	8G'	8g'	8c'	8e'	24ee	.	.	.	.	.	.	.	.	.	.
.	.	.	.	.	24cc	.	.	.	.	.	.	.	.	.	.
.	.	.	.	.	24ee	.	.	.	.	.	.	.	.	.	.
=105	=105	=105	=105	=105	=105	=105	=105	=105	=105	=105	=105	=105	=105	=105	=105
8FF'	8F'	8f'	8A'	8d'	24dd	2ryy	2ryy	2ryy	2r	2r	2r	2r	2ryy	2ryy	2ryy
.	.	.	.	.	24ff	.	.	.	.	.	.	.	.	.	.
.	.	.	.	.	24dd	.	.	.	.	.	.	.	.	.	.
8GG'	8G'	8g'	8B-'	8c#'	24cc#	.	.	.	.	.	.	.	.	.	.
.	.	.	.	.	24ee	.	.	.	.	.	.	.	.	.	.
.	.	.	.	.	24cc#	.	.	.	.	.	.	.	.	.	.
8FF'	8F'	8f'	8A'	8d'	24dd	.	.	.	.	.	.	.	.	.	.
.	.	.	.	.	24ff	.	.	.	.	.	.	.	.	.	.
.	.	.	.	.	24dd	.	.	.	.	.	.	.	.	.	.
8GG'	8G'	8g'	8B-'	8c#'	24cc#	.	.	.	.	.	.	.	.	.	.
.	.	.	.	.	24ee	.	.	.	.	.	.	.	.	.	.
.	.	.	.	.	24cc#	.	.	.	.	.	.	.	.	.	.
=106	=106	=106	=106	=106	=106	=106	=106	=106	=106	=106	=106	=106	=106	=106	=106
4FF	4F	4f	4A	4d	24dd	2ryy	2ryy	2ryy	2r	2r	2r	2r	2ryy	2ryy	2ryy
.	.	.	.	.	24ff	.	.	.	.	.	.	.	.	.	.
.	.	.	.	.	24ee	.	.	.	.	.	.	.	.	.	.
.	.	.	.	.	24dd	.	.	.	.	.	.	.	.	.	.
.	.	.	.	.	24ff	.	.	.	.	.	.	.	.	.	.
.	.	.	.	.	24gg	.	.	.	.	.	.	.	.	.	.
8r	8r	8r	8r	8r	24aa	.	.	.	.	.	.	.	.	.	.
.	.	.	.	.	24gg	.	.	.	.	.	.	.	.	.	.
.	.	.	.	.	24ff	.	.	.	.	.	.	.	.	.	.
8FF#'	8F#'	8f#'	8c'	8e'	24ee	.	.	.	.	.	.	.	.	.	.
.	.	.	.	.	24dd	.	.	.	.	.	.	.	.	.	.
.	.	.	.	.	24cc	.	.	.	.	.	.	.	.	.	.
=107	=107	=107	=107	=107	=107	=107	=107	=107	=107	=107	=107	=107	=107	=107	=107
8GG'	8G'	8g'	4c	4e	4cc	2ryy	2ryy	2ryy	2r	2r	2r	2r	2ryy	2ryy	2ryy
8GGG'	8GG'	8G'	.	.	.	.	.	.	.	.	.	.	.	.	.
8GGG'	8GG'	8G'	8B	8d	8b	.	.	.	.	.	.	.	.	.	.
8r	8r	8r	8r	8G	8g	.	.	.	.	.	.	.	.	.	.
*	*	*	*	*	*	*	*	*	*clefF4	*clefF4	*	*	*	*	*
=108	=108	=108	=108	=108	=108	=108	=108	=108	=108	=108	=108	=108	=108	=108	=108
8CCC	8CC	8C	4G	8.e	8.ccS	2ryy	2ryy	2ryy	2CCC	[2CC	2r	2r	2ryy	2ryy	2ryy
8CC	8C	8c	.	.	.	.	.	.	.	.	.	.	.	.	.
.	.	.	.	16f	16dd	.	.	.	.	.	.	.	.	.	.
8CC	8C	8c	8e	8g	8ee	.	.	.	.	.	.	.	.	.	.
8CC	8C	8c	8d#	8f#	8ff#	.	.	.	.	.	.	.	.	.	.
=109	=109	=109	=109	=109	=109	=109	=109	=109	=109	=109	=109	=109	=109	=109	=109
4CC	4C	4c	4e	4g	24gg	2ryy	2ryy	2ryy	2CCC	2CC_	2r	2r	2ryy	2ryy	2ryy
.	.	.	.	.	24eee	.	.	.	.	.	.	.	.	.	.
.	.	.	.	.	24ddd	.	.	.	.	.	.	.	.	.	.
.	.	.	.	.	24ccc	.	.	.	.	.	.	.	.	.	.
.	.	.	.	.	24bb	.	.	.	.	.	.	.	.	.	.
.	.	.	.	.	24aa	.	.	.	.	.	.	.	.	.	.
4r	4r	4r	8r	8r	8gg	.	.	.	.	.	.	.	.	.	.
.	.	.	8fn'	8a'	24ffn	.	.	.	.	.	.	.	.	.	.
.	.	.	.	.	24gg	.	.	.	.	.	.	.	.	.	.
.	.	.	.	.	24aa	.	.	.	.	.	.	.	.	.	.
=110	=110	=110	=110	=110	=110	=110	=110	=110	=110	=110	=110	=110	=110	=110	=110
*staff:1	*staff:1	*staff:2	*staff:3	*staff:4	*staff:5	*	*	*	*staff:6	*staff:6	*	*	*	*	*
8CC	8C	8c	8e'	8g'	24ee	2ryy	2ryy	2ryy	2CCC	2CC_	2ryy	2ryy	2ryy	2ryy	2ryy
.	.	.	.	.	24ff	.	.	.	.	.	.	.	.	.	.
.	.	.	.	.	24gg	.	.	.	.	.	.	.	.	.	.
8CC	8C	8c	8e'	8g'	24ee	.	.	.	.	.	.	.	.	.	.
.	.	.	.	.	24ff	.	.	.	.	.	.	.	.	.	.
.	.	.	.	.	24gg	.	.	.	.	.	.	.	.	.	.
8CC	8C	8c	8d'	8f'	24dd	.	.	.	.	.	.	.	.	.	.
.	.	.	.	.	24ee	.	.	.	.	.	.	.	.	.	.
.	.	.	.	.	24ff	.	.	.	.	.	.	.	.	.	.
8CC	8C	8c	8d'	8f'	24dd	.	.	.	.	.	.	.	.	.	.
.	.	.	.	.	24ee	.	.	.	.	.	.	.	.	.	.
.	.	.	.	.	24ff	.	.	.	.	.	.	.	.	.	.
=111	=111	=111	=111	=111	=111	=111	=111	=111	=111	=111	=111	=111	=111	=111	=111
4CC	4C	4c	4c	4e	24cc	2ryy	2ryy	2ryy	2CCC	2CC_	2ryy	2ryy	2ryy	2ryy	2ryy
.	.	.	.	.	24ee	.	.	.	.	.	.	.	.	.	.
.	.	.	.	.	24dd	.	.	.	.	.	.	.	.	.	.
.	.	.	.	.	24cc	.	.	.	.	.	.	.	.	.	.
.	.	.	.	.	24b	.	.	.	.	.	.	.	.	.	.
.	.	.	.	.	24a	.	.	.	.	.	.	.	.	.	.
4r	4r	4r	4r	4r	24g	.	.	.	.	.	.	.	.	.	.
.	.	.	.	.	24a	.	.	.	.	.	.	.	.	.	.
.	.	.	.	.	24b	.	.	.	.	.	.	.	.	.	.
.	.	.	.	.	24cc	.	.	.	.	.	.	.	.	.	.
.	.	.	.	.	24dd	.	.	.	.	.	.	.	.	.	.
.	.	.	.	.	24ee	.	.	.	.	.	.	.	.	.	.
=112	=112	=112	=112	=112	=112	=112	=112	=112	=112	=112	=112	=112	=112	=112	=112
4AA'	4A'	4a'	4c'	4f'	24ff	2ryy	2ryy	2ryy	2CCC	2CC_	2ryy	2ryy	2ryy	2ryy	2ryy
.	.	.	.	.	24cc	.	.	.	.	.	.	.	.	.	.
.	.	.	.	.	24ff	.	.	.	.	.	.	.	.	.	.
.	.	.	.	.	24aa	.	.	.	.	.	.	.	.	.	.
.	.	.	.	.	24gg	.	.	.	.	.	.	.	.	.	.
.	.	.	.	.	24ff	.	.	.	.	.	.	.	.	.	.
4FF'	4F'	4f'	4c'	4a'	24ccc	.	.	.	.	.	.	.	.	.	.
.	.	.	.	.	24ccc	.	.	.	.	.	.	.	.	.	.
.	.	.	.	.	24ccc	.	.	.	.	.	.	.	.	.	.
.	.	.	.	.	24ccc	.	.	.	.	.	.	.	.	.	.
.	.	.	.	.	24ccc	.	.	.	.	.	.	.	.	.	.
.	.	.	.	.	24ccc	.	.	.	.	.	.	.	.	.	.
=113	=113	=113	=113	=113	=113	=113	=113	=113	=113	=113	=113	=113	=113	=113	=113
4EE'	4E'	4e'	4c'	4g'	24ccc	2ryy	2ryy	2ryy	4CCC	4CC]	2ryy	2ryy	2ryy	2ryy	2ryy
.	.	.	.	.	24gg	.	.	.	.	.	.	.	.	.	.
.	.	.	.	.	24eee	.	.	.	.	.	.	.	.	.	.
.	.	.	.	.	24eee	.	.	.	.	.	.	.	.	.	.
.	.	.	.	.	24ccc	.	.	.	.	.	.	.	.	.	.
.	.	.	.	.	24ggg	.	.	.	.	.	.	.	.	.	.
8r	8r	8r	8r	8r	8ggg	.	.	.	4ryy	8r	.	.	.	.	.
8r;	8r;	8r;	8r;	8r;	8r;	.	.	.	.	8r;	.	.	.	.	.
=114	=114	=114	=114	=114	=114	=114	=114	=114	=114	=114	=114	=114	=114	=114	=114
8CC	8C	2r	8c	8e	24c 24e	2ryy	2ryy	2ryy	2r	2r	2ryy	2ryy	2ryy	2ryy	2ryy
.	.	.	.	.	24G	.	.	.	.	.	.	.	.	.	.
.	.	.	.	.	24c 24e	.	.	.	.	.	.	.	.	.	.
8r	8r	.	8r	8r	24c 24e	.	.	.	.	.	.	.	.	.	.
.	.	.	.	.	24G	.	.	.	.	.	.	.	.	.	.
.	.	.	.	.	24c 24e	.	.	.	.	.	.	.	.	.	.
8GGG	8GG	.	8B	8d	24B 24d	.	.	.	.	.	.	.	.	.	.
.	.	.	.	.	24G	.	.	.	.	.	.	.	.	.	.
.	.	.	.	.	24B 24d	.	.	.	.	.	.	.	.	.	.
8r	8r	.	8r	8r	24B 24d	.	.	.	.	.	.	.	.	.	.
.	.	.	.	.	24G	.	.	.	.	.	.	.	.	.	.
.	.	.	.	.	24B 24d	.	.	.	.	.	.	.	.	.	.
=115	=115	=115	=115	=115	=115	=115	=115	=115	=115	=115	=115	=115	=115	=115	=115
4CC	4C	24C	4c	4e	4c 4e	4.ryy	4.ryy	4.ryy	4r	4r	4.ryy	4.ryy	4.ryy	4.ryy	4.ryy
.	.	24E	.	.	.	.	.	.	.	.	.	.	.	.	.
.	.	24G	.	.	.	.	.	.	.	.	.	.	.	.	.
.	.	24C	.	.	.	.	.	.	.	.	.	.	.	.	.
.	.	24E	.	.	.	.	.	.	.	.	.	.	.	.	.
.	.	24G	.	.	.	.	.	.	.	.	.	.	.	.	.
8r	8r	8C	8r	8r	8r	.	.	.	8r	8r	.	.	.	.	.
*	*	*	*	*	*	*	*	*	*clefG2	*clefG2	*	*	*	*	*
=116:|	=116:|	=116:|	=116:|	=116:|	=116:|	=116:|	=116:|	=116:|	=116:|	=116:|	=116:|	=116:|	=116:|	=116:|	=116:|
*>H	*>H	*>H	*>H	*>H	*>H	*>H	*>H	*>H	*>H	*>H	*>H	*>H	*>H	*>H	*>H
*staff:8	*staff:8	*staff:9	*staff:10	*staff:11	*	*staff:12	*staff:13	*staff:13	*staff:14	*staff:14	*staff:15	*staff:15	*staff:16	*staff:16	*staff:17
8r	8r	8r	8G	8g	8ryy	8r	8r	8r	8r	8r	8r	8r	8g	8g	8g
=117	=117	=117	=117	=117	=117	=117	=117	=117	=117	=117	=117	=117	=117	=117	=117
16r	16r	16r	4c	4cc	2ryy	16C	16c	16cc	16C	16c	16r	16r	4cc	4cc	4cc
16AA-'	16A-'	16cc'	.	.	.	32C	32c	32cc	32C	32c	16A-'	16A-'	.	.	.
.	.	.	.	.	.	32C	32c	32cc	32C	32c	.	.	.	.	.
16GG'	16G'	16b-'	.	.	.	16C	16c	16cc	16C	16c	16G'	16G'	.	.	.
16FF'	16F'	16a-'	.	.	.	16C	16c	16cc	16C	16c	16F'	16F'	.	.	.
16EE-'	16E-'	16g'	8e-	8ee-	.	8C	8c	8cc	8C	8c	16E-'	16E-'	8ee-	8ee-	8ee-
16DD'	16D'	16f'	.	.	.	.	.	.	.	.	16D'	16D'	.	.	.
16CC'	16C'	16e-'	8f#	8ff#	.	8r	8ryy	8r	8ryy	8r	16C'	16C'	8ff#'	8ff#'	8ff#'
16DD'	16D'	16d'	.	.	.	.	.	.	.	.	16D'	16D'	.	.	.
=118	=118	=118	=118	=118	=118	=118	=118	=118	=118	=118	=118	=118	=118	=118	=118
16BBB	16BBn	16Bn	8g'	8gg'	2ryy	16GG	16g	16gg	16G	16g	16BBn	16BBn	16gg	16gg	16gg
16DD	16D	16d	.	.	.	32GG	32g	32gg	32G	32g	16D	16D	32gg	32gg	32gg
.	.	.	.	.	.	32GG	32g	32gg	32G	32g	.	.	32gg	32gg	32gg
16FF	16F	16f	8d'	8dd'	.	16GG	16g	16gg	16G	16g	16F	16F	16gg	16gg	16gg
16AA-X	16A-X	16A-X	.	.	.	16GG	16g	16gg	16G	16g	16A-X	16A-X	16gg	16gg	16gg
16GG	16G	16G	8Bn'	8bn'	.	8GG	8g	8gg	8G	8g	16G	16G	8gg	8gg	8gg
16FF	16F	16Bn	.	.	.	.	.	.	.	.	16F	16F	.	.	.
16EE-	16E-	16c	8G'	8g'	.	8r	8ryy	8r	8ryy	8r	16E-	16E-	8r	8r	8r
16DD	16D	16d	.	.	.	.	.	.	.	.	16D	16D	.	.	.
=119	=119	=119	=119	=119	=119	=119	=119	=119	=119	=119	=119	=119	=119	=119	=119
16EE-	16E-	16e-	8.c	8.cc	2ryy	16C	16c	16cc	16C	16c	16E-	16E-	8.cc	8.cc	8.cc
16FF	16F	16f	.	.	.	32C	32c	32cc	32C	32c	16F	16F	.	.	.
.	.	.	.	.	.	32C	32c	32cc	32C	32c	.	.	.	.	.
16EE-	16E-	16e-	.	.	.	16C	16c	16cc	16C	16c	16E-	16E-	.	.	.
16DD	16D	16d	16d	16dd	.	16C	16c	16cc	16C	16c	16D	16D	16dd	16dd	16dd
16CC	16C	16c	8e-	8ee-	.	8C	8c	8cc	8C	8c	16C	16C	8ee-	8ee-	8ee-
16BBB-	16BB-	16B-	.	.	.	.	.	.	.	.	16BB-	16BB-	.	.	.
16AAA-	16AA-	16A-	8f#	8ff#	.	8r	8ryy	8r	8ryy	8r	16AA-	16AA-	8ff#	8ff#	8ff#
16AA-	16A-	16A-	.	.	.	.	.	.	.	.	16A-	16A-	.	.	.
=120	=120	=120	=120	=120	=120	=120	=120	=120	=120	=120	=120	=120	=120	=120	=120
4GG	4G	4G	16g	16gg	2ryy	16GG	16g	16gg	16G	16g	4G	4G	16gg	16gg	16gg
.	.	.	32g	32gg	.	32GG	32g	32gg	32G	32g	.	.	32gg	32gg	32gg
.	.	.	32g	32gg	.	32GG	32g	32gg	32G	32g	.	.	32gg	32gg	32gg
.	.	.	16g	16gg	.	16GG	16g	16gg	16G	16g	.	.	16gg	16gg	16gg
.	.	.	16g	16gg	.	16GG	16g	16gg	16G	16g	.	.	16gg	16gg	16gg
4r	4r	4r	8g	8gg	.	8GG	8g	8gg	8G	8g	4r	4r	8gg	8gg	8gg
.	.	.	8r	8g	.	8r	8ryy	8r	8ryy	8r	.	.	8r	8r	8r
=121	=121	=121	=121	=121	=121	=121	=121	=121	=121	=121	=121	=121	=121	=121	=121
2r	2r	2r	16r	4cc	2ryy	2r	2r	2r	2r	2r	2r	2r	2r	2r	2r
.	.	.	16A-	.	.	.	.	.	.	.	.	.	.	.	.
.	.	.	16a-	.	.	.	.	.	.	.	.	.	.	.	.
.	.	.	16a-	.	.	.	.	.	.	.	.	.	.	.	.
.	.	.	16a-	8een	.	.	.	.	.	.	.	.	.	.	.
.	.	.	16a-	.	.	.	.	.	.	.	.	.	.	.	.
.	.	.	16a-	8ff	.	.	.	.	.	.	.	.	.	.	.
.	.	.	16a-	.	.	.	.	.	.	.	.	.	.	.	.
=122	=122	=122	=122	=122	=122	=122	=122	=122	=122	=122	=122	=122	=122	=122	=122
2r	2r	2r	8g	16.bb-	2ryy	2r	2r	2r	2r	2r	2r	2r	2r	2r	2r
.	.	.	.	32ff#	.	.	.	.	.	.	.	.	.	.	.
.	.	.	8r	16.gg	.	.	.	.	.	.	.	.	.	.	.
.	.	.	.	32dd	.	.	.	.	.	.	.	.	.	.	.
.	.	.	16.g	8ee-'	.	.	.	.	.	.	.	.	.	.	.
.	.	.	32d	.	.	.	.	.	.	.	.	.	.	.	.
.	.	.	16.e-	8r	.	.	.	.	.	.	.	.	.	.	.
.	.	.	32G	.	.	.	.	.	.	.	.	.	.	.	.
=123	=123	=123	=123	=123	=123	=123	=123	=123	=123	=123	=123	=123	=123	=123	=123
2r	2r	2r	4A-	16.ccc	2ryy	2r	2r	2r	2r	2r	2r	2r	2r	2r	2r
.	.	.	.	32gg	.	.	.	.	.	.	.	.	.	.	.
.	.	.	.	16.aa-	.	.	.	.	.	.	.	.	.	.	.
.	.	.	.	32een	.	.	.	.	.	.	.	.	.	.	.
.	.	.	8r	16.ff	.	.	.	.	.	.	.	.	.	.	.
.	.	.	.	32ccc	.	.	.	.	.	.	.	.	.	.	.
.	.	.	8B-	16.bb-	.	.	.	.	.	.	.	.	.	.	.
.	.	.	.	32dd	.	.	.	.	.	.	.	.	.	.	.
=124	=124	=124	=124	=124	=124	=124	=124	=124	=124	=124	=124	=124	=124	=124	=124
*	*staff:1	*staff:2	*staff:3	*staff:4	*	*	*	*	*	*	*staff:5	*staff:5	*staff:6	*staff:6	*staff:7
4.ryy	16.E-	4r	4e-	4ee-	4.ryy	4.ryy	4.ryy	4.ryy	4.ryy	4.ryy	4r	4r	4r	4r	4r
.	32AAn	.	.	.	.	.	.	.	.	.	.	.	.	.	.
.	16.BB-	.	.	.	.	.	.	.	.	.	.	.	.	.	.
.	32DD	.	.	.	.	.	.	.	.	.	.	.	.	.	.
.	8EE-	8r	8r	8r	.	.	.	.	.	.	8r	8r	8r	8r	8r
=125:|	=125:|	=125:|	=125:|	=125:|	=125:|	=125:|	=125:|	=125:|	=125:|	=125:|	=125:|	=125:|	=125:|	=125:|	=125:|
*>I	*>I	*>I	*>I	*>I	*>I	*>I	*>I	*>I	*>I	*>I	*>I	*>I	*>I	*>I	*>I
*staff:1	*	*	*	*	*	*	*	*	*	*	*	*	*	*	*
8r	8r	8r	8r	8b-	8ryy	8ryy	8ryy	8ryy	8ryy	8ryy	8r	8r	8r	8r	8r
=126	=126	=126	=126	=126	=126	=126	=126	=126	=126	=126	=126	=126	=126	=126	=126
16EE-	16E-	16B-	16G 16e-	32ee-	2ryy	2ryy	2ryy	2ryy	2ryy	2ryy	4.B-	4.B-	4g	4ee-	[2bb-
.	.	.	.	32dd	.	.	.	.	.	.	.	.	.	.	.
16EE-	16E-	16B-	16G 16e-	32cc	.	.	.	.	.	.	.	.	.	.	.
.	.	.	.	32b-	.	.	.	.	.	.	.	.	.	.	.
16EE-	16E-	16B-	16G 16e-	32a-	.	.	.	.	.	.	.	.	.	.	.
.	.	.	.	32g	.	.	.	.	.	.	.	.	.	.	.
16EE-	16E-	16B-	16G 16e-	32f	.	.	.	.	.	.	.	.	.	.	.
.	.	.	.	32e-	.	.	.	.	.	.	.	.	.	.	.
8FF	8F	8B-	8A- 8d	8d	.	.	.	.	.	.	.	.	8a-	8dd	.
8r	8r	8r	8r	8b-	.	.	.	.	.	.	8r	8r	8ryy	8r	.
=127	=127	=127	=127	=127	=127	=127	=127	=127	=127	=127	=127	=127	=127	=127	=127
16DD	16D	16B-	16A- 16d	32aa-	2ryy	2ryy	2ryy	2ryy	2ryy	2ryy	4.B-	4.B-	4ff	4aa-	2bb-]
.	.	.	.	32gg	.	.	.	.	.	.	.	.	.	.	.
16DD	16D	16B-	16A- 16d	32ff	.	.	.	.	.	.	.	.	.	.	.
.	.	.	.	32ee-	.	.	.	.	.	.	.	.	.	.	.
16DD	16D	16B-	16A- 16d	32dd	.	.	.	.	.	.	.	.	.	.	.
.	.	.	.	32cc	.	.	.	.	.	.	.	.	.	.	.
16DD	16D	16B-	16A- 16d	32b-	.	.	.	.	.	.	.	.	.	.	.
.	.	.	.	32a-	.	.	.	.	.	.	.	.	.	.	.
8EE-	8E-	8B-	8G 8e-	8g	.	.	.	.	.	.	.	.	8ee-	8gg	.
8r	8r	8r	8r	8bb-	.	.	.	.	.	.	8r	8r	8ryy	8r	.
=128	=128	=128	=128	=128	=128	=128	=128	=128	=128	=128	=128	=128	=128	=128	=128
16r	16r	16r	16r	4d-	2ryy	2ryy	2ryy	2ryy	2ryy	2ryy	2r	2r	2r	2r	2r
16FF	16F	16F	16A-	.	.	.	.	.	.	.	.	.	.	.	.
16FF	16F	16F	16A-	.	.	.	.	.	.	.	.	.	.	.	.
16FF	16F	16F	16A-	.	.	.	.	.	.	.	.	.	.	.	.
8EE	8En	8En	8G	16c	.	.	.	.	.	.	.	.	.	.	.
.	.	.	.	16r	.	.	.	.	.	.	.	.	.	.	.
8r	8r	8r	8r	16cc	.	.	.	.	.	.	.	.	.	.	.
.	.	.	.	16r	.	.	.	.	.	.	.	.	.	.	.
=129	=129	=129	=129	=129	=129	=129	=129	=129	=129	=129	=129	=129	=129	=129	=129
2r	2r	16r	16r	4dd-	2ryy	2ryy	2ryy	2ryy	2ryy	2ryy	2r	2r	2r	2r	2r
.	.	16en	16g	.	.	.	.	.	.	.	.	.	.	.	.
.	.	16e	16g	.	.	.	.	.	.	.	.	.	.	.	.
.	.	16e	16g	.	.	.	.	.	.	.	.	.	.	.	.
.	.	8f	8a-	16cc	.	.	.	.	.	.	.	.	.	.	.
.	.	.	.	16r	.	.	.	.	.	.	.	.	.	.	.
.	.	8r	8r	16ddn	.	.	.	.	.	.	.	.	.	.	.
.	.	.	.	16r	.	.	.	.	.	.	.	.	.	.	.
=130	=130	=130	=130	=130	=130	=130	=130	=130	=130	=130	=130	=130	=130	=130	=130
2r	2r	16r	16r	4ee-	2ryy	2ryy	2ryy	2ryy	2ryy	2ryy	2r	2r	2r	2r	2r
.	.	16f#	16cc	.	.	.	.	.	.	.	.	.	.	.	.
.	.	16f#	16cc	.	.	.	.	.	.	.	.	.	.	.	.
.	.	16f#	16cc	.	.	.	.	.	.	.	.	.	.	.	.
.	.	8g	8bn	16dd	.	.	.	.	.	.	.	.	.	.	.
.	.	.	.	16r	.	.	.	.	.	.	.	.	.	.	.
.	.	8r	8r	16gg	.	.	.	.	.	.	.	.	.	.	.
.	.	.	.	16r	.	.	.	.	.	.	.	.	.	.	.
=131	=131	=131	=131	=131	=131	=131	=131	=131	=131	=131	=131	=131	=131	=131	=131
*staff:11	*staff:11	*staff:12	*staff:13	*staff:14	*	*staff:15	*staff:16	*staff:16	*staff:17	*staff:17	*staff:18	*staff:18	*staff:19	*staff:19	*staff:20
2r	2r	8r	8r	8ff#'	2ryy	2r	2r	2r	2r	2r	2r	2r	2r	2r	2r
.	.	8a-'	8cc'	8r	.	.	.	.	.	.	.	.	.	.	.
.	.	8r	8r	8ee-X'	.	.	.	.	.	.	.	.	.	.	.
.	.	8A-'	8f#'	16r	.	.	.	.	.	.	.	.	.	.	.
.	.	.	.	32dd	.	.	.	.	.	.	.	.	.	.	.
.	.	.	.	32cc	.	.	.	.	.	.	.	.	.	.	.
=132	=132	=132	=132	=132	=132	=132	=132	=132	=132	=132	=132	=132	=132	=132	=132
2r	2r	8G'	8g'	16.cc	2ryy	2r	2r	2r	2r	2r	2r	2r	2r	2r	2r
.	.	.	.	32bn	.	.	.	.	.	.	.	.	.	.	.
.	.	8r	8r	16.ee-	.	.	.	.	.	.	.	.	.	.	.
.	.	.	.	32dd	.	.	.	.	.	.	.	.	.	.	.
.	.	8r	8r	16dd'	.	.	.	.	.	.	.	.	.	.	.
.	.	.	.	16r	.	.	.	.	.	.	.	.	.	.	.
.	.	8cc'	8ee-'	16ff#'	.	.	.	.	.	.	.	.	.	.	.
.	.	.	.	16r	.	.	.	.	.	.	.	.	.	.	.
=133	=133	=133	=133	=133	=133	=133	=133	=133	=133	=133	=133	=133	=133	=133	=133
4r	4r	8bn'	8dd'	32gg	2ryy	4r	4ryy	4r	4ryy	4r	4r	4r	4r	4r	4r
.	.	.	.	32ff#	.	.	.	.	.	.	.	.	.	.	.
.	.	.	.	32gg	.	.	.	.	.	.	.	.	.	.	.
.	.	.	.	32ff#	.	.	.	.	.	.	.	.	.	.	.
.	.	8r	8r	32gg	.	.	.	.	.	.	.	.	.	.	.
.	.	.	.	32ff#	.	.	.	.	.	.	.	.	.	.	.
.	.	.	.	32gg	.	.	.	.	.	.	.	.	.	.	.
.	.	.	.	32ff#	.	.	.	.	.	.	.	.	.	.	.
8r	8r	8r	8r	16.gg	.	8r	8ryy	8r	8ryy	8r	8r	8r	8r	8r	8r
.	.	.	.	32aa-X	.	.	.	.	.	.	.	.	.	.	.
8GGG	8GG	8G	8g	16.gg	.	8GG	8G	8g	8GG	8G	8GG	8GG	8g	8g	8g
.	.	.	.	32ffn	.	.	.	.	.	.	.	.	.	.	.
=134	=134	=134	=134	=134	=134	=134	=134	=134	=134	=134	=134	=134	=134	=134	=134
4CC	4C	4c	16G 16e-	32ee-	2ryy	16C	16c	16cc	16C	16c	4C	4C	16cc	16cc	16cc
.	.	.	.	32ff	.	.	.	.	.	.	.	.	.	.	.
.	.	.	16G 16e-	32gg	.	32C	32c	32cc	32C	32c	.	.	32cc	32cc	32cc
.	.	.	.	32ff	.	32C	32c	32cc	32C	32c	.	.	32cc	32cc	32cc
.	.	.	16G 16e-	32ee-	.	16C	16c	16cc	16C	16c	.	.	16cc	16cc	16cc
.	.	.	.	32ff	.	.	.	.	.	.	.	.	.	.	.
.	.	.	16G 16e-	32dd	.	16C	16c	16cc	16C	16c	.	.	16cc	16cc	16cc
.	.	.	.	32ee-	.	.	.	.	.	.	.	.	.	.	.
8EE-	8E-	8e-	16c 16e-	32cc	.	8C	8c	8cc	8C	8c	8E-	8E-	8cc	8cc	8cc
.	.	.	.	32bn	.	.	.	.	.	.	.	.	.	.	.
.	.	.	16c 16e-	32cc	.	.	.	.	.	.	.	.	.	.	.
.	.	.	.	32b	.	.	.	.	.	.	.	.	.	.	.
8FF#	8F#	8f#	16c 16e-	32cc	.	8r	8ryy	8r	8ryy	8r	8F#	8F#	8r	8r	8r
.	.	.	.	32ee-	.	.	.	.	.	.	.	.	.	.	.
.	.	.	16c 16e-	32dd	.	.	.	.	.	.	.	.	.	.	.
.	.	.	.	32cc	.	.	.	.	.	.	.	.	.	.	.
=135	=135	=135	=135	=135	=135	=135	=135	=135	=135	=135	=135	=135	=135	=135	=135
8GG'	8G'	8g'	16Bn 16d	16bn	2ryy	16GG	16g	16gg	16G	16g	8G'	8G'	16gg	16gg	16gg
.	.	.	16B 16d	16dd	.	32GG	32g	32gg	32G	32g	.	.	32gg	32gg	32gg
.	.	.	.	.	.	32GG	32g	32gg	32G	32g	.	.	32gg	32gg	32gg
8DD'	8D'	8d'	16B 16d	16r	.	16GG	16g	16gg	16G	16g	8D'	8D'	16gg	16gg	16gg
.	.	.	16B 16d	16gg	.	16GG	16g	16gg	16G	16g	.	.	16gg	16gg	16gg
8BBB'	8BBn'	8Bn'	16B 16d	16r	.	8GG	8g	8gg	8G	8g	8BBn'	8BBn'	8gg	8gg	8gg
.	.	.	16B 16d	16bbn	.	.	.	.	.	.	.	.	.	.	.
8GGG'	8GG'	8G'	16B 16d	16r	.	8r	8ryy	8r	8ryy	8r	8GG'	8GG'	8r	8r	8r
.	.	.	16B 16d	16ddd	.	.	.	.	.	.	.	.	.	.	.
=136	=136	=136	=136	=136	=136	=136	=136	=136	=136	=136	=136	=136	=136	=136	=136
*staff:1	*staff:1	*staff:2	*staff:3	*staff:4	*	*staff:5	*staff:6	*staff:6	*staff:7	*staff:7	*staff:8	*staff:8	*staff:9	*staff:9	*staff:10
8.CC	8.C	8.c	16G 16e-	32ee-	2ryy	16C	16c	16cc	16C	16c	8.C	8.C	16cc	16cc	16cc
.	.	.	.	32ff	.	.	.	.	.	.	.	.	.	.	.
.	.	.	16G 16e-	32gg	.	32C	32c	32cc	32C	32c	.	.	32cc	32cc	32cc
.	.	.	.	32ff	.	32C	32c	32cc	32C	32c	.	.	32cc	32cc	32cc
.	.	.	16G 16e-	32ee-	.	16C	16c	16cc	16C	16c	.	.	16cc	16cc	16cc
.	.	.	.	32ff	.	.	.	.	.	.	.	.	.	.	.
16DD	16D	16d	16G 16e-	32dd	.	16C	16c	16cc	16C	16c	16D	16D	16cc	16cc	16cc
.	.	.	.	32ee-	.	.	.	.	.	.	.	.	.	.	.
8EE-	8E-	8e-	16c 16e-	32cc	.	8C	8c	8cc	8C	8c	8E-	8E-	8cc	8cc	8cc
.	.	.	.	32bn	.	.	.	.	.	.	.	.	.	.	.
.	.	.	16c 16e-	32cc	.	.	.	.	.	.	.	.	.	.	.
.	.	.	.	32b	.	.	.	.	.	.	.	.	.	.	.
8FF#	8F#	8f#	16c 16e-	32cc	.	8r	8ryy	8r	8ryy	8r	8F#	8F#	8r	8r	8r
.	.	.	.	32ee-	.	.	.	.	.	.	.	.	.	.	.
.	.	.	16c 16e-	32dd	.	.	.	.	.	.	.	.	.	.	.
.	.	.	.	32cc	.	.	.	.	.	.	.	.	.	.	.
=137	=137	=137	=137	=137	=137	=137	=137	=137	=137	=137	=137	=137	=137	=137	=137
32GG	32G	32g	4e- 4cc	4ee-	2ryy	16GG	16g	16gg	16G	16g	32G	32G	16gg	16gg	16gg
32FF#	32F#	32f#	.	.	.	.	.	.	.	.	32F#	32F#	.	.	.
32GG	32G	32g	.	.	.	32GG	32g	32gg	32G	32g	32G	32G	32gg	32gg	32gg
32FF#	32F#	32f#	.	.	.	32GG	32g	32gg	32G	32g	32F#	32F#	32gg	32gg	32gg
32GG	32G	32g	.	.	.	16GG	16g	16gg	16G	16g	32G	32G	16gg	16gg	16gg
32FF#	32F#	32f#	.	.	.	.	.	.	.	.	32F#	32F#	.	.	.
32GG	32G	32g	.	.	.	16GG	16g	16gg	16G	16g	32G	32G	16gg	16gg	16gg
32FF#	32F#	32f#	.	.	.	.	.	.	.	.	32F#	32F#	.	.	.
8GG	8G	8g	8d 8bn	8dd	.	8GG	8g	8gg	8G	8g	8G	8G	8gg	8gg	8gg
8r	8r	8en	8b-	8dd-	.	8r	8ryy	8r	8ryy	8r	8r	8r	8r	8r	8r
=138	=138	=138	=138	=138	=138	=138	=138	=138	=138	=138	=138	=138	=138	=138	=138
2r	2r	32f	4b-	4dd-	2ryy	2r	2r	2r	2r	2r	2r	2r	2r	2r	2r
.	.	32en	.	.	.	.	.	.	.	.	.	.	.	.	.
.	.	32f	.	.	.	.	.	.	.	.	.	.	.	.	.
.	.	32e	.	.	.	.	.	.	.	.	.	.	.	.	.
.	.	32f	.	.	.	.	.	.	.	.	.	.	.	.	.
.	.	32e	.	.	.	.	.	.	.	.	.	.	.	.	.
.	.	32f	.	.	.	.	.	.	.	.	.	.	.	.	.
.	.	32e	.	.	.	.	.	.	.	.	.	.	.	.	.
.	.	8f	8a-	8cc	.	.	.	.	.	.	.	.	.	.	.
.	.	8d	8b-	8aa-	.	.	.	.	.	.	.	.	.	.	.
=139	=139	=139	=139	=139	=139	=139	=139	=139	=139	=139	=139	=139	=139	=139	=139
4r	4r	4.e-	4.cc	32aa-	2ryy	2r	2r	2r	2r	2r	2r	2r	2r	2r	2r
.	.	.	.	32ff#	.	.	.	.	.	.	.	.	.	.	.
.	.	.	.	32gg	.	.	.	.	.	.	.	.	.	.	.
.	.	.	.	32ff#	.	.	.	.	.	.	.	.	.	.	.
.	.	.	.	32gg	.	.	.	.	.	.	.	.	.	.	.
.	.	.	.	32ff#	.	.	.	.	.	.	.	.	.	.	.
.	.	.	.	32gg	.	.	.	.	.	.	.	.	.	.	.
.	.	.	.	32ff#	.	.	.	.	.	.	.	.	.	.	.
8r	8r	.	.	8gg'	.	.	.	.	.	.	.	.	.	.	.
8BB	8Bn	8a-	8dd	8ffn'	.	.	.	.	.	.	.	.	.	.	.
=140	=140	=140	=140	=140	=140	=140	=140	=140	=140	=140	=140	=140	=140	=140	=140
4.C	4.c	32a-	32dd	32ff	2ryy	4r	4ryy	4r	4ryy	4r	4r	4r	4ryy	4r	4r
.	.	32f#	32bn	32dd	.	.	.	.	.	.	.	.	.	.	.
.	.	32g	32cc	32ee-	.	.	.	.	.	.	.	.	.	.	.
.	.	32f#	32b	32dd	.	.	.	.	.	.	.	.	.	.	.
.	.	32g	32cc	32ee-	.	.	.	.	.	.	.	.	.	.	.
.	.	32f#	32b	32dd	.	.	.	.	.	.	.	.	.	.	.
.	.	32g	32cc	32ee-	.	.	.	.	.	.	.	.	.	.	.
.	.	32f#	32b	32dd	.	.	.	.	.	.	.	.	.	.	.
.	.	8g	8cc	16.ee-	.	8r	8ryy	8r	8ryy	8r	8r	8r	8ryy	8r	8r
.	.	.	.	32dd'	.	.	.	.	.	.	.	.	.	.	.
8EE-	8E-	8e-	8g	16.cc	.	8C	8c	8cc	8C	8c	8E-	8E-	8cc	8cc	8cc
.	.	.	.	32b-X'	.	.	.	.	.	.	.	.	.	.	.
=141	=141	=141	=141	=141	=141	=141	=141	=141	=141	=141	=141	=141	=141	=141	=141
*staff:11	*staff:11	*staff:12	*staff:13	*staff:14	*	*staff:15	*staff:16	*staff:16	*staff:17	*staff:17	*staff:18	*staff:18	*staff:19	*staff:19	*staff:20
8FF'	8F'	16c	32b-	32b-	2ryy	16C	16c	16cc	16C	16c	8F'	8F'	2cc	8aa-	[2ccc
.	.	.	32a-	32a-	.	.	.	.	.	.	.	.	.	.	.
.	.	32c	32cc	32cc	.	32C	32c	32cc	32C	32c	.	.	.	.	.
.	.	32c	32cc	32cc	.	32C	32c	32cc	32C	32c	.	.	.	.	.
8GG'	8G'	16c	32a-	32a-	.	16C	16c	16cc	16C	16c	8G'	8G'	.	8gg	.
.	.	.	32g	32g	.	.	.	.	.	.	.	.	.	.	.
.	.	16c	32cc	32cc	.	16C	16c	16cc	16C	16c	.	.	.	.	.
.	.	.	32cc	32cc	.	.	.	.	.	.	.	.	.	.	.
8AA-'	8A-'	16c	32g	32g	.	16C	16c	16cc	16C	16c	8A-'	8A-'	.	8ff	.
.	.	.	32f	32f	.	.	.	.	.	.	.	.	.	.	.
.	.	32c	32cc	32cc	.	16C	16c	16cc	16C	16c	.	.	.	.	.
.	.	32c	32cc	32cc	.	.	.	.	.	.	.	.	.	.	.
8GG'	8G'	16c	32f	32f	.	16C	16c	16cc	16C	16c	8G'	8G'	.	8ee-	.
.	.	.	32e-	32e-	.	.	.	.	.	.	.	.	.	.	.
.	.	16c	32cc	32cc	.	16C	16c	16cc	16C	16c	.	.	.	.	.
.	.	.	32cc	32cc	.	.	.	.	.	.	.	.	.	.	.
=142	=142	=142	=142	=142	=142	=142	=142	=142	=142	=142	=142	=142	=142	=142	=142
4FF	4F	4c	32e-	32e-	2ryy	8C	8c	8cc	8C	8c	4F	4F	8.a-	4dd	8ccc]
.	.	.	32d	32d	.	.	.	.	.	.	.	.	.	.	.
.	.	.	32g	32g	.	.	.	.	.	.	.	.	.	.	.
.	.	.	32f	32f	.	.	.	.	.	.	.	.	.	.	.
.	.	.	32a-	32a-	.	8r	8ryy	8r	8ryy	8r	.	.	.	.	8aa-
.	.	.	32f	32f	.	.	.	.	.	.	.	.	.	.	.
.	.	.	32e-	32e-	.	.	.	.	.	.	.	.	16d	.	.
.	.	.	32d	32d	.	.	.	.	.	.	.	.	.	.	.
8r	8r	8r	8c'	8c'	.	16GG	16G	16g	16GG	16G	8r	8r	8g	8ee-	8gg
.	.	.	.	.	.	32GG	32G	32g	32GG	32G	.	.	.	.	.
.	.	.	.	.	.	32GG	32G	32g	32GG	32G	.	.	.	.	.
8GGG'	8GG'	8f'	8Bn'	8Bn'	.	16GG	16G	16g	16GG	16G	8GG'	8GG'	8f	8bn	8bbn
.	.	.	.	.	.	16GG	16G	16g	16GG	16G	.	.	.	.	.
=143	=143	=143	=143	=143	=143	=143	=143	=143	=143	=143	=143	=143	=143	=143	=143
8CC'	8C'	4f	4Bn	4d	2ryy	8C	4G	4g	4GG	4G	8C'	8C'	4f	4dd	4bbn
8GGG'	8GG'	.	.	.	.	8GG	.	.	.	.	8GG'	8GG'	.	.	.
8CCC'	8CC'	8e-	8c	8c	.	8C	8c	8cc	8C	8c	8CC'	8CC'	8e-	8cc	8ccc
8r	8r	8r	8r	8r	.	8r	8ryy	8r	8ryy	8r	8r	8r	8g	8g	8r
=144||	=144||	=144||	=144||	=144||	=144||	=144||	=144||	=144||	=144||	=144||	=144||	=144||	=144||	=144||	=144||
*k[]	*k[]	*k[]	*k[]	*k[]	*	*	*	*	*	*	*k[]	*k[]	*k[]	*k[]	*k[]
4CC	4C	4G 4e	4G 4e	4e 4cc	2ryy	2r	2r	2r	4E	4c	16C	16C	8.e	8.cc	2r
.	.	.	.	.	.	.	.	.	.	.	16c	16c	.	.	.
.	.	.	.	.	.	.	.	.	.	.	16C	16C	.	.	.
.	.	.	.	.	.	.	.	.	.	.	16c	16c	16g	16dd	.
4r	4r	4r	4r	4r	.	.	.	.	4ryy	4r	16C	16C	8cc	8ee	.
.	.	.	.	.	.	.	.	.	.	.	16c	16c	.	.	.
.	.	.	.	.	.	.	.	.	.	.	16C	16C	8dd#	8ff#	.
.	.	.	.	.	.	.	.	.	.	.	16c	16c	.	.	.
=145	=145	=145	=145	=145	=145	=145	=145	=145	=145	=145	=145	=145	=145	=145	=145
4CC	4C	4G 4e	4G 4e	4e 4cc	2ryy	2r	2r	2r	4E	4c	16C	16C	8.ee	8.gg	32gg
.	.	.	.	.	.	.	.	.	.	.	.	.	.	.	32ccc
.	.	.	.	.	.	.	.	.	.	.	16c	16c	.	.	32eee
.	.	.	.	.	.	.	.	.	.	.	.	.	.	.	32ccc
.	.	.	.	.	.	.	.	.	.	.	16C	16C	.	.	32gg
.	.	.	.	.	.	.	.	.	.	.	.	.	.	.	32ccc
.	.	.	.	.	.	.	.	.	.	.	16c	16c	16ffn	16aa	32aa
.	.	.	.	.	.	.	.	.	.	.	.	.	.	.	32ccc
4r	4r	4r	8r	8r	.	.	.	.	4ryy	4r	16C	16C	8ee	8gg	8gg
.	.	.	.	.	.	.	.	.	.	.	16c	16c	.	.	.
.	.	.	8d 8b	8f 8b	.	.	.	.	.	.	16C	16C	8ddn'y	8ffn'	8r
.	.	.	.	.	.	.	.	.	.	.	16c	16c	.	.	.
=146	=146	=146	=146	=146	=146	=146	=146	=146	=146	=146	=146	=146	=146	=146	=146
8CC	8C	8G 8e	8e 8cc	8e 8cc	2ryy	2r	2r	2r	2C	[2G	16C	16C	8cc'	8ee'y	2r
.	.	.	.	.	.	.	.	.	.	.	16c	16c	.	.	.
8r	8r	8r	8r	8r	.	.	.	.	.	.	16C	16C	8cc'	8ee'y	.
.	.	.	.	.	.	.	.	.	.	.	16c	16c	.	.	.
8CC	8C	8G 8f	8d 8b	8f 8b	.	.	.	.	.	.	16C	16C	8f'	8dd'y	.
.	.	.	.	.	.	.	.	.	.	.	16c	16c	.	.	.
8r	8r	8r	8r	8r	.	.	.	.	.	.	16C	16C	8f'	8dd'y	.
.	.	.	.	.	.	.	.	.	.	.	16c	16c	.	.	.
=147	=147	=147	=147	=147	=147	=147	=147	=147	=147	=147	=147	=147	=147	=147	=147
*staff:1	*staff:1	*staff:2	*staff:3	*staff:4	*	*staff:5	*staff:6	*staff:6	*staff:7	*staff:7	*staff:8	*staff:8	*staff:9	*staff:9	*staff:10
4CC	4C	4G 4e	4e 4cc	4e 4cc	2ryy	2r	2r	2r	2C	2G_	16C	16C	4e	8.ccT	32gg
.	.	.	.	.	.	.	.	.	.	.	.	.	.	.	32ccc
.	.	.	.	.	.	.	.	.	.	.	16c	16c	.	.	32eee
.	.	.	.	.	.	.	.	.	.	.	.	.	.	.	32ccc
.	.	.	.	.	.	.	.	.	.	.	16C	16C	.	.	32eee
.	.	.	.	.	.	.	.	.	.	.	.	.	.	.	32ccc
.	.	.	.	.	.	.	.	.	.	.	16c	16c	.	32b	32eee
.	.	.	.	.	.	.	.	.	.	.	.	.	.	32cc	32ccc
4r	4r	4r	4r	4r	.	.	.	.	.	.	16C	16C	8r	8g'	8gg
.	.	.	.	.	.	.	.	.	.	.	16c	16c	.	.	.
.	.	.	.	.	.	.	.	.	.	.	16C	16C	8g	8g	8r
.	.	.	.	.	.	.	.	.	.	.	16c	16c	.	.	.
=148	=148	=148	=148	=148	=148	=148	=148	=148	=148	=148	=148	=148	=148	=148	=148
4CC	4C	4G 4e	4G 4e	4e 4cc	2ryy	2r	2r	2r	4C	4G]	16C	16C	8.e	8.cc	2r
.	.	.	.	.	.	.	.	.	.	.	16c	16c	.	.	.
.	.	.	.	.	.	.	.	.	.	.	16C	16C	.	.	.
.	.	.	.	.	.	.	.	.	.	.	16c	16c	16g	16dd	.
4r	4r	4r	4r	4r	.	.	.	.	4ryy	4r	16C	16C	8cc	8ee	.
.	.	.	.	.	.	.	.	.	.	.	16c	16c	.	.	.
.	.	.	.	.	.	.	.	.	.	.	16C	16C	8dd#	8ff#	.
.	.	.	.	.	.	.	.	.	.	.	16c	16c	.	.	.
=149	=149	=149	=149	=149	=149	=149	=149	=149	=149	=149	=149	=149	=149	=149	=149
4CC	4C	4G 4e	4G 4e	4e 4cc	2ryy	2r	2r	2r	4E	4c	16C	16C	8.ee	8.gg	32gg
.	.	.	.	.	.	.	.	.	.	.	.	.	.	.	32ccc
.	.	.	.	.	.	.	.	.	.	.	16c	16c	.	.	32eee
.	.	.	.	.	.	.	.	.	.	.	.	.	.	.	32ccc
.	.	.	.	.	.	.	.	.	.	.	16C	16C	.	.	32gg
.	.	.	.	.	.	.	.	.	.	.	.	.	.	.	32ccc
.	.	.	.	.	.	.	.	.	.	.	16c	16c	16ffn	16aa	32aa
.	.	.	.	.	.	.	.	.	.	.	.	.	.	.	32ccc
4r	4r	4r	4r	4r	.	.	.	.	4ryy	4r	16C	16C	8ee	8gg	8gg
.	.	.	.	.	.	.	.	.	.	.	16c	16c	.	.	.
.	.	.	.	.	.	.	.	.	.	.	16BB	16BB	8ff	8gg#	8gg#
.	.	.	.	.	.	.	.	.	.	.	16B	16B	.	.	.
=150	=150	=150	=150	=150	=150	=150	=150	=150	=150	=150	=150	=150	=150	=150	=150
8CC	8C	8c	8c 8e	8e 8a	2ryy	2r	2r	2r	4c	4e	16C	16C	8ee	8aa	32aa
.	.	.	.	.	.	.	.	.	.	.	.	.	.	.	32ccc
.	.	.	.	.	.	.	.	.	.	.	16c	16c	.	.	32eee
.	.	.	.	.	.	.	.	.	.	.	.	.	.	.	32ccc
8r	8r	8r	8r	8r	.	.	.	.	.	.	16C	16C	8ee	8aa	8aa'
.	.	.	.	.	.	.	.	.	.	.	16c	16c	.	.	.
8DD	8D	8d	8c 8f#	8A 8f#	.	.	.	.	4d	4d	16D	16D	8a	8ff#	32ff#
.	.	.	.	.	.	.	.	.	.	.	.	.	.	.	32aa
.	.	.	.	.	.	.	.	.	.	.	16d	16d	.	.	32ccc
.	.	.	.	.	.	.	.	.	.	.	.	.	.	.	32aa
8r	8r	8r	8r	8r	.	.	.	.	.	.	16D	16D	8a	8ff#	8ff#'
.	.	.	.	.	.	.	.	.	.	.	16d	16d	.	.	.
=151	=151	=151	=151	=151	=151	=151	=151	=151	=151	=151	=151	=151	=151	=151	=151
4GGG	4GG	4G	4B 4g	4G 4g	2ryy	2r	2r	2r	4G	4d	16GG	16GG	4b	8.ggT	8.ggT
.	.	.	.	.	.	.	.	.	.	.	16G	16G	.	.	.
.	.	.	.	.	.	.	.	.	.	.	16GG	16GG	.	.	.
.	.	.	.	.	.	.	.	.	.	.	16G	16G	.	32ff#	32ff#
.	.	.	.	.	.	.	.	.	.	.	.	.	.	32gg	32gg
4r	4r	8r	8r	4r	.	.	.	.	4ryy	4r	8GG	8GG	8r	8g	8g
.	.	8G	8G	.	.	.	.	.	.	.	8r	8r	8g	8gg'	8r
=152	=152	=152	=152	=152	=152	=152	=152	=152	=152	=152	=152	=152	=152	=152	=152
4GGG	16r	8.dTz	8.fTz	4r	2ryy	8GG	2g	2dd	2G	2d	8.dT	8.dT	8.ddTy	8.ffnTz	4r
.	16GG	.	.	.	.	.	.	.	.	.	.	.	.	.	.
.	16BB	.	.	.	.	16GG	.	.	.	.	.	.	.	.	.
.	16D	32c	32e	.	.	16GG	.	.	.	.	32c	32c	32cc	32ee	.
.	.	32d	32f	.	.	.	.	.	.	.	32d	32d	32dd	32ff	.
4r	16G	8G'	8d'	8r	.	8GG	.	.	.	.	8B'	8B'	8b'y	8dd'	8r
.	16B	.	.	.	.	.	.	.	.	.	.	.	.	.	.
.	16d	8B'	8d'	8g'	.	8GG	.	.	.	.	8B'	8B'	8b'y	8dd'	8g
.	16f	.	.	.	.	.	.	.	.	.	.	.	.	.	.
=153	=153	=153	=153	=153	=153	=153	=153	=153	=153	=153	=153	=153	=153	=153	=153
4GGG	16r	8C'	8.etz	8.ggTz	2ryy	8C	2cc	2ee	2c	2e	2c	2c	8.eety	8.ggTz	8.ggTz
.	16GG	.	.	.	.	.	.	.	.	.	.	.	.	.	.
.	16C	8c'	.	.	.	8r	.	.	.	.	.	.	.	.	.
.	16E	.	32d	32ff#	.	.	.	.	.	.	.	.	32dd	32ff#	32ff#
.	.	.	32e	32gg	.	.	.	.	.	.	.	.	32ee	32gg	32gg
4r	16G	8r	8e'	8ccc'	.	8C	.	.	.	.	.	.	8cc'y	8ccc'	8ccc'
.	16c	.	.	.	.	.	.	.	.	.	.	.	.	.	.
.	16e	8c	8e'	8ccc'	.	8r	.	.	.	.	.	.	8ee'y	8ccc'	8ccc'
.	16g	.	.	.	.	.	.	.	.	.	.	.	.	.	.
=154	=154	=154	=154	=154	=154	=154	=154	=154	=154	=154	=154	=154	=154	=154	=154
*staff:11	*staff:11	*staff:12	*staff:13	*staff:14	*	*staff:15	*staff:16	*staff:16	*staff:17	*staff:17	*staff:18	*staff:18	*staff:19	*staff:19	*staff:20
4GGG	16r	8.dTz	8.fTz	4r	2ryy	8GG	2g	2dd	2G	2d	8.dTz	8.dTz	8.ddTy	8.ffnTz	4r
.	16GG	.	.	.	.	.	.	.	.	.	.	.	.	.	.
.	16BB	.	.	.	.	16GG	.	.	.	.	.	.	.	.	.
.	16D	32c	32e	.	.	16GG	.	.	.	.	32c	32c	32cc	32ee	.
.	.	32d	32f	.	.	.	.	.	.	.	32d	32d	32dd	32ff	.
4r	16G	8G'	8d'	8r	.	8GG	.	.	.	.	8B'	8B'	8b'y	8dd'	8r
.	16B	.	.	.	.	.	.	.	.	.	.	.	.	.	.
.	16d	8B'	8d'	8g'	.	8GG	.	.	.	.	8B'	8B'	8b'y	8dd'	8g
.	16f	.	.	.	.	.	.	.	.	.	.	.	.	.	.
=155	=155	=155	=155	=155	=155	=155	=155	=155	=155	=155	=155	=155	=155	=155	=155
4CCC	16r	8C'	8.etz	8.ggTz	2ryy	8C	2cc	2ee	2c	2e	2c	2c	8.eety	8.ggTz	8.ggTz
.	16GG	.	.	.	.	.	.	.	.	.	.	.	.	.	.
.	16C	8c'	.	.	.	8r	.	.	.	.	.	.	.	.	.
.	16E	.	32d	32ff#	.	.	.	.	.	.	.	.	32dd	32ff#	32ff#
.	.	.	32e	32gg	.	.	.	.	.	.	.	.	32ee	32gg	32gg
4r	16G	8r	8e'	8ccc'	.	8C	.	.	.	.	.	.	8cc'y	8ccc'	8ccc'
.	16c	.	.	.	.	.	.	.	.	.	.	.	.	.	.
.	16e	8c	8e'	8ccc'	.	8r	.	.	.	.	.	.	8cc'y	8ccc'	8ccc'
.	16c	.	.	.	.	.	.	.	.	.	.	.	.	.	.
=156	=156	=156	=156	=156	=156	=156	=156	=156	=156	=156	=156	=156	=156	=156	=156
16FF	16F	8F	2c	32aa	2ryy	4C	2cc	2cc	2c	2c	8F	8F	2cc	8aa	32aa
.	.	.	.	32ccc	.	.	.	.	.	.	.	.	.	.	32ccc
16FF	16F	.	.	32bb	.	.	.	.	.	.	.	.	.	.	32bb
.	.	.	.	32aa	.	.	.	.	.	.	.	.	.	.	32aa
16EE	16E	8E	.	16gg	.	.	.	.	.	.	8E	8E	.	8gg	16gg
16EE	16E	.	.	16gg	.	.	.	.	.	.	.	.	.	.	16gg
16AA	16A	8A	.	32ff	.	4r	.	.	.	.	8A	8A	.	8ff	32ff
.	.	.	.	32aa	.	.	.	.	.	.	.	.	.	.	32aa
16AA	16A	.	.	32gg	.	.	.	.	.	.	.	.	.	.	32gg
.	.	.	.	32ff	.	.	.	.	.	.	.	.	.	.	32ff
16GG	16G	8G	.	16ee	.	.	.	.	.	.	8G	8G	.	8ee	16ee
16GG	16G	.	.	16ee	.	.	.	.	.	.	.	.	.	.	16ee
=157	=157	=157	=157	=157	=157	=157	=157	=157	=157	=157	=157	=157	=157	=157	=157
16FF	16F	8F	8A	32dd	2ryy	2r	2r	2r	2r	2r	8F	8F	8a	8dd	32dd
.	.	.	.	32ff	.	.	.	.	.	.	.	.	.	.	32ff
16FF	16F	.	.	32ee	.	.	.	.	.	.	.	.	.	.	32ee
.	.	.	.	32dd	.	.	.	.	.	.	.	.	.	.	32dd
16GG	16G	8G	8B-	32cc#	.	.	.	.	.	.	8G	8G	8b-	8cc#	32cc#
.	.	.	.	32ee	.	.	.	.	.	.	.	.	.	.	32ee
16GG	16G	.	.	32dd	.	.	.	.	.	.	.	.	.	.	32dd
.	.	.	.	32cc#	.	.	.	.	.	.	.	.	.	.	32cc#
16FF	16F	8F	8A	32dd	.	.	.	.	.	.	8F	8F	8a	8dd	32dd
.	.	.	.	32ff	.	.	.	.	.	.	.	.	.	.	32ff
16FF	16F	.	.	32ee	.	.	.	.	.	.	.	.	.	.	32ee
.	.	.	.	32dd	.	.	.	.	.	.	.	.	.	.	32dd
16GG	16G	8G	8B-	32cc#	.	.	.	.	.	.	8G	8G	8b-	8cc#	32cc#
.	.	.	.	32ee	.	.	.	.	.	.	.	.	.	.	32ee
16GG	16G	.	.	32dd	.	.	.	.	.	.	.	.	.	.	32dd
.	.	.	.	32cc#	.	.	.	.	.	.	.	.	.	.	32cc#
=158	=158	=158	=158	=158	=158	=158	=158	=158	=158	=158	=158	=158	=158	=158	=158
4.FF	4.F	2F	4.A	32cc#	2ryy	2r	2r	2r	2r	2r	2F	2F	2a	4.dd	32cc#
.	.	.	.	32dd	.	.	.	.	.	.	.	.	.	.	32dd
.	.	.	.	32cc#	.	.	.	.	.	.	.	.	.	.	32cc#
.	.	.	.	32dd	.	.	.	.	.	.	.	.	.	.	32dd
.	.	.	.	32ee	.	.	.	.	.	.	.	.	.	.	32ee
.	.	.	.	32ff	.	.	.	.	.	.	.	.	.	.	32ff
.	.	.	.	32ee	.	.	.	.	.	.	.	.	.	.	32ee
.	.	.	.	32ff	.	.	.	.	.	.	.	.	.	.	32ff
.	.	.	.	32gg#	.	.	.	.	.	.	.	.	.	.	32gg#
.	.	.	.	32aa	.	.	.	.	.	.	.	.	.	.	32aa
.	.	.	.	32gg#	.	.	.	.	.	.	.	.	.	.	32gg#
.	.	.	.	32aa	.	.	.	.	.	.	.	.	.	.	32aa
8FF	8F	.	8c	32ggn	.	.	.	.	.	.	.	.	.	8ccn	32ggn
.	.	.	.	32ff	.	.	.	.	.	.	.	.	.	.	32ff
.	.	.	.	32ee	.	.	.	.	.	.	.	.	.	.	32ee
.	.	.	.	32dd	.	.	.	.	.	.	.	.	.	.	32dd
=159	=159	=159	=159	=159	=159	=159	=159	=159	=159	=159	=159	=159	=159	=159	=159
*staff:1	*staff:1	*staff:2	*staff:3	*staff:4	*	*staff:5	*staff:6	*staff:6	*staff:7	*staff:7	*staff:8	*staff:8	*staff:9	*staff:9	*staff:10
4GG	4G	4G	32d#	4cc	2ryy	2r	2r	2r	2r	2r	4G	4G	4e	4cc	4cc
.	.	.	32e	.	.	.	.	.	.	.	.	.	.	.	.
.	.	.	32d#	.	.	.	.	.	.	.	.	.	.	.	.
.	.	.	32e	.	.	.	.	.	.	.	.	.	.	.	.
.	.	.	32g	.	.	.	.	.	.	.	.	.	.	.	.
.	.	.	32e	.	.	.	.	.	.	.	.	.	.	.	.
.	.	.	32dn	.	.	.	.	.	.	.	.	.	.	.	.
.	.	.	32c	.	.	.	.	.	.	.	.	.	.	.	.
4r	4r	8r	32G	8b	.	.	.	.	.	.	4r	4r	8d	8b	8b
.	.	.	32g	.	.	.	.	.	.	.	.	.	.	.	.
.	.	.	32a	.	.	.	.	.	.	.	.	.	.	.	.
.	.	.	32f	.	.	.	.	.	.	.	.	.	.	.	.
.	.	8G	32g	8g	.	.	.	.	.	.	.	.	8g	8g	8g
.	.	.	32e	.	.	.	.	.	.	.	.	.	.	.	.
.	.	.	32f	.	.	.	.	.	.	.	.	.	.	.	.
.	.	.	32d	.	.	.	.	.	.	.	.	.	.	.	.
=160	=160	=160	=160	=160	=160	=160	=160	=160	=160	=160	=160	=160	=160	=160	=160
4CC	4C	8.c	8.e	8.cc	2ryy	4C	4e	4cc	4C	4G	4CC	4C	8.cc	8.cc	8.cc
.	.	16d	16g	16dd	.	.	.	.	.	.	.	.	16b	16dd	16dd
4BBB	4BB	8e'	8cc	8ee	.	4r	4ryy	4r	4ryy	4r	4ryy	4r	8cc	8ee	8ee
.	.	8f#'	8dd#	8ff#	.	.	.	.	.	.	.	.	8dd#	8ff#	8ff#
=161	=161	=161	=161	=161	=161	=161	=161	=161	=161	=161	=161	=161	=161	=161	=161
4CCz	4Cz	8.gz	8.eez	8.ggz	2ryy	4C	4e	4cc	4C	4G	4CC	4C	8.ee	8.ggz	8.ggz
.	.	16a	16ffn	16aa	.	.	.	.	.	.	.	.	16ffn	16aa	16aa
4BBB	4BB	8g'	8ee	8gg	.	4r	4ryy	4r	4ryy	4r	4ryy	4r	8ee	8gg	8gg
.	.	8fn'	8ddn'	8ffn'	.	.	.	.	.	.	.	.	8ddn	8ffn	8ffn
=162	=162	=162	=162	=162	=162	=162	=162	=162	=162	=162	=162	=162	=162	=162	=162
4CCz	4Cz	8e'	8cc'	8ee'	2ryy	16C	4cc	4ee	2C	2G	4CC	4C	8cc'y	8ee'	8ee'
.	.	.	.	.	.	16C	.	.	.	.	.	.	.	.	.
.	.	8e'	8cc'	8ee'	.	16C	.	.	.	.	.	.	8cc'y	8ee'	8ee'
.	.	.	.	.	.	16C	.	.	.	.	.	.	.	.	.
4BBB	4BB	8d'	8f'	8dd'	.	16C	4g	4dd	.	.	4ryy	4r	8b'y	8dd'	8dd'
.	.	.	.	.	.	16C	.	.	.	.	.	.	.	.	.
.	.	8d'	8f'	8dd'	.	16C	.	.	.	.	.	.	8b'y	8dd'	8dd'
.	.	.	.	.	.	16C	.	.	.	.	.	.	.	.	.
=163	=163	=163	=163	=163	=163	=163	=163	=163	=163	=163	=163	=163	=163	=163	=163
4CCz	4Cz	8.cTz	8.etz	8.ccTz	2ryy	4C	4e	4cc	4C	4G	4CC	4C	8.ccTz	8.ccTz	8.ccTz
.	.	32B	32d	32b	.	.	.	.	.	.	.	.	32b	32b	32b
.	.	32c	32e	32cc	.	.	.	.	.	.	.	.	32cc	32cc	32cc
4BBB	4BB	8G'	8e'	8g'	.	4r	4ryy	4r	4ryy	4r	4ryy	4r	8g'	8g'	8g'
.	.	8c'	8e'	8cc'	.	.	.	.	.	.	.	.	8cc'	8cc'	8cc'
=164	=164	=164	=164	=164	=164	=164	=164	=164	=164	=164	=164	=164	=164	=164	=164
4CCz	4Cz	8.f	8.a	8.ff	2ryy	16C	2c	[2cc	2C	[2c	4CC	4C	8.cc	8.ff	8.ff
.	.	.	.	.	.	16C	.	.	.	.	.	.	.	.	.
.	.	.	.	.	.	16C	.	.	.	.	.	.	.	.	.
.	.	16g	16g	16gg	.	16C	.	.	.	.	.	.	16b-	16gg	16gg
4BBB	4BB	8a'	8f	8aa	.	16C	.	.	.	.	4ryy	4r	8a	8aa	8aa
.	.	.	.	.	.	16C	.	.	.	.	.	.	.	.	.
.	.	8g'	8f'	8bb'	.	16C	.	.	.	.	.	.	8g'y	8bbn'	8bb'
.	.	.	.	.	.	16C	.	.	.	.	.	.	.	.	.
=165	=165	=165	=165	=165	=165	=165	=165	=165	=165	=165	=165	=165	=165	=165	=165
8CCz	8Cz	8.g	8.e	8.ccc	2ryy	4C	4c	4cc]	4C	4c]	4CC	4C	8.g	8.ccc	8.ccc
8BBB	8BB	.	.	.	.	.	.	.	.	.	.	.	.	.	.
.	.	16f	16d	16ddd	.	.	.	.	.	.	.	.	16f	16ddd	16ddd
8CC'	8C'	8e'	8c'	8eee'	.	8r	8ryy	8r	4ryy	8r	4ryy	8r	8e'y	8eee'	8eee'
8r;	8r;	8r;	8r;	8r;	.	8r;	8r;yy	8r;	.	8r;	.	8r;	8ryy	8r;	8r;
=166	=166	=166	=166	=166	=166	=166	=166	=166	=166	=166	=166	=166	=166	=166	=166
2r	2r	2r	2r	2r	2ryy	4r	8.ee	8.gg	8.e	8.g	8.e	8.g	8.ee	8.gg	8.ee
.	.	.	.	.	.	.	16dd	16ff	16d	16f	16d	16f	16dd	16ff	16dd
.	.	.	.	.	.	8r	8cc	8ee	8c	8e	8c	8e	8cc	8ee	8cc
.	.	.	.	.	.	8GG	8g	8dd	8G	8d	8G	8d	8b	8dd	8b
=167	=167	=167	=167	=167	=167	=167	=167	=167	=167	=167	=167	=167	=167	=167	=167
2r	2r	2r	2r	2r	2ryy	8C	8e	8cc	8E	8c	8E	8c	8cc	8cc	8cc
.	.	.	.	.	.	8r	8ryy	8r	8ryy	8r	8ryy	8r	8r	16ccc	8r
.	.	.	.	.	.	.	.	.	.	.	.	.	.	16bb	.
.	.	.	.	.	.	4r	4ryy	4r	4ryy	4r	4ryy	4r	4r	16aa	4r
.	.	.	.	.	.	.	.	.	.	.	.	.	.	16gg	.
.	.	.	.	.	.	.	.	.	.	.	.	.	.	16ff	.
.	.	.	.	.	.	.	.	.	.	.	.	.	.	16ee	.
=168	=168	=168	=168	=168	=168	=168	=168	=168	=168	=168	=168	=168	=168	=168	=168
*staff:11	*staff:11	*staff:12	*staff:13	*staff:14	*	*staff:15	*staff:16	*staff:16	*staff:17	*staff:17	*staff:18	*staff:18	*staff:19	*staff:19	*staff:20
2r	2r	2r	2r	2r	2ryy	4r	8.ee	8.gg	8.e	8.g	8.e	8.g	8.ee	8.gg	8.ee
.	.	.	.	.	.	.	16dd	16ff	16d	16f	16d	16f	16dd	16ff	16dd
.	.	.	.	.	.	8r	8cc	8ee	8c	8e	8c	8e	8cc	8ee	8cc
.	.	.	.	.	.	8GG	8g	8dd	8G	8d	8G	8d	8b	8dd	8b
=169	=169	=169	=169	=169	=169	=169	=169	=169	=169	=169	=169	=169	=169	=169	=169
2r	16c	2r	4r	4r	2ryy	8C	8e	8cc	8E	8c	8C	8c	8cc	8cc	8cc
.	16c	.	.	.	.	.	.	.	.	.	.	.	.	.	.
.	16c	.	.	.	.	8r	8ryy	8r	8ryy	8r	8ryy	8r	8ryy	8r	8ryy
.	16c	.	.	.	.	.	.	.	.	.	.	.	.	.	.
.	16c	.	8r	8r	.	4r	4ryy	4r	4ryy	4r	4ryy	4r	4ryy	4r	4ryy
.	16c	.	.	.	.	.	.	.	.	.	.	.	.	.	.
.	16c	.	8cc	8cc	.	.	.	.	.	.	.	.	.	.	.
.	16c	.	.	.	.	.	.	.	.	.	.	.	.	.	.
=170	=170	=170	=170	=170	=170	=170	=170	=170	=170	=170	=170	=170	=170	=170	=170
4CC	[2c	2r	8.a	8.ff	2ryy	2r	2r	2r	2r	2r	2r	2r	2r	2r	2r
.	.	.	16g	16gg	.	.	.	.	.	.	.	.	.	.	.
4r	.	.	8f'	8aa'	.	.	.	.	.	.	.	.	.	.	.
.	.	.	8f'	8bb'	.	.	.	.	.	.	.	.	.	.	.
=171	=171	=171	=171	=171	=171	=171	=171	=171	=171	=171	=171	=171	=171	=171	=171
4CC	2c_	4r	8.e	8.ccc	2ryy	2r	2r	2r	2r	2r	2r	2r	2ryy	4r	2r
.	.	.	16f	16ddd	.	.	.	.	.	.	.	.	.	.	.
4r	.	8r	8g	8eee	.	.	.	.	.	.	.	.	.	8r	.
.	.	8ez	8gg'	8ccc'	.	.	.	.	.	.	.	.	.	8e	.
=172	=172	=172	=172	=172	=172	=172	=172	=172	=172	=172	=172	=172	=172	=172	=172
4CC	2c_	8.f	4gg	8bb	2ryy	2r	2r	2r	2r	2r	2r	2r	2ryy	8.f	2r
.	.	.	.	8aa	.	.	.	.	.	.	.	.	.	.	.
.	.	16g	.	.	.	.	.	.	.	.	.	.	.	16g	.
4r	.	8a'	8ff	8aa'	.	.	.	.	.	.	.	.	.	8a'	.
.	.	8b'	8ff'	8aa'	.	.	.	.	.	.	.	.	.	8b	.
=173	=173	=173	=173	=173	=173	=173	=173	=173	=173	=173	=173	=173	=173	=173	=173
4CC	4.c]	8.cc	4ff	4.gg	2ryy	2r	2r	2r	2r	2r	2r	2r	2ryy	8.cc	2r
.	.	16dd	.	.	.	.	.	.	.	.	.	.	.	16dd	.
4r	.	8ee	8ee	.	.	.	.	.	.	.	.	.	.	8ee'	.
.	8E	8cc'	16cc	16g	.	.	.	.	.	.	.	.	.	8r	.
.	.	.	16b	16gg	.	.	.	.	.	.	.	.	.	.	.
=174	=174	=174	=174	=174	=174	=174	=174	=174	=174	=174	=174	=174	=174	=174	=174
[2CC	8.F	8.cc	4.a	4gg	2ryy	2r	2r	2r	2r	2r	2r	2r	2ryy	2r	2r
.	16G	16b	.	.	.	.	.	.	.	.	.	.	.	.	.
.	8A'	8a'	.	8ff	.	.	.	.	.	.	.	.	.	.	.
.	8B'	16g	8dd	8ff'	.	.	.	.	.	.	.	.	.	.	.
.	.	16dd	.	.	.	.	.	.	.	.	.	.	.	.	.
=175	=175	=175	=175	=175	=175	=175	=175	=175	=175	=175	=175	=175	=175	=175	=175
2CC]	8.c	4dd	4.g	4ff	2ryy	2r	2r	2r	2r	2r	2r	2r	2ryy	2r	2r
.	16d	.	.	.	.	.	.	.	.	.	.	.	.	.	.
.	8e'	8cc	.	8ee	.	.	.	.	.	.	.	.	.	.	.
.	8G'	8r	8cc	8ee'	.	.	.	.	.	.	.	.	.	.	.
=176	=176	=176	=176	=176	=176	=176	=176	=176	=176	=176	=176	=176	=176	=176	=176
4CC	4A-	4a-	4f 4b	8.dd	2ryy	2r	2r	2r	2r	2r	2r	2r	2ryy	2r	2r
.	.	.	.	16ee	.	.	.	.	.	.	.	.	.	.	.
4ryy	4r	4r	4r	8ff'	.	.	.	.	.	.	.	.	.	.	.
.	.	.	.	8r	.	.	.	.	.	.	.	.	.	.	.
=177	=177	=177	=177	=177	=177	=177	=177	=177	=177	=177	=177	=177	=177	=177	=177
4CC	4G	4g	4e 4cc	8.cc	2ryy	2r	2r	2r	2r	2r	2r	2r	2ryy	2r	2r
.	.	.	.	16dd	.	.	.	.	.	.	.	.	.	.	.
4ryy	4r	4r	4r	8ee'	.	.	.	.	.	.	.	.	.	.	.
.	.	.	.	8r	.	.	.	.	.	.	.	.	.	.	.
=178	=178	=178	=178	=178	=178	=178	=178	=178	=178	=178	=178	=178	=178	=178	=178
4CC	4C	4a-	4A- 4f	8.b	2ryy	2r	2r	2r	2r	2r	2r	2r	2ryy	2r	2r
.	.	.	.	16cc	.	.	.	.	.	.	.	.	.	.	.
4ryy	4r	4r	4r	8dd'	.	.	.	.	.	.	.	.	.	.	.
.	.	.	.	8r	.	.	.	.	.	.	.	.	.	.	.
=179	=179	=179	=179	=179	=179	=179	=179	=179	=179	=179	=179	=179	=179	=179	=179
*staff:1	*staff:1	*staff:2	*staff:3	*staff:4	*	*staff:5	*staff:6	*staff:6	*staff:7	*staff:7	*staff:8	*staff:8	*	*staff:9	*staff:10
8CC	8C	8c	8G 8e	8cc	2ryy	2r	2r	2r	2r	2r	2r	2r	2ryy	2r	2r
8r	8r	8r	8r	8r	.	.	.	.	.	.	.	.	.	.	.
8CC	8C	8c	8e	8g	.	.	.	.	.	.	.	.	.	.	.
8r	8r	8r	8r	8r	.	.	.	.	.	.	.	.	.	.	.
=180	=180	=180	=180	=180	=180	=180	=180	=180	=180	=180	=180	=180	=180	=180	=180
16AAA	16AA	16G	16c#	16G 16e	2ryy	2r	2r	2r	2r	2r	2r	2r	2ryy	2r	2r
16AAA	16AA	16G	16c#	16G 16e	.	.	.	.	.	.	.	.	.	.	.
16AAA	16AA	16G	16c#	16G 16e	.	.	.	.	.	.	.	.	.	.	.
16AAA	16AA	16G	16c#	16G 16e	.	.	.	.	.	.	.	.	.	.	.
16AAA	16AA	16G	16c#	16G 16e	.	.	.	.	.	.	.	.	.	.	.
16AAA	16AA	16G	16c#	16G 16e	.	.	.	.	.	.	.	.	.	.	.
16AAA	16AA	16G	16c#	16G 16e	.	.	.	.	.	.	.	.	.	.	.
16AAA	16AA	16G	16c#	16G 16e	.	.	.	.	.	.	.	.	.	.	.
=181	=181	=181	=181	=181	=181	=181	=181	=181	=181	=181	=181	=181	=181	=181	=181
16AAA	16AA	16G	16c#	16G 16e	2ryy	2r	2r	2r	2r	2r	2r	2r	2ryy	8.cc#	8.ccc#
16AAA	16AA	16G	16c#	16G 16e	.	.	.	.	.	.	.	.	.	.	.
16AAA	16AA	16G	16c#	16G 16e	.	.	.	.	.	.	.	.	.	.	.
16AAA	16AA	16G	16c#	16G 16e	.	.	.	.	.	.	.	.	.	16dd	16ddd
16AAA	16AA	16G	16c#	16G 16e	.	.	.	.	.	.	.	.	.	8ee'	8eee'
16AAA	16AA	16G	16c#	16G 16e	.	.	.	.	.	.	.	.	.	.	.
16AAA	16AA	16G	16c#	16G 16e	.	.	.	.	.	.	.	.	.	8r	8r
16AAA	16AA	16G	16c#	16G 16e	.	.	.	.	.	.	.	.	.	.	.
=182	=182	=182	=182	=182	=182	=182	=182	=182	=182	=182	=182	=182	=182	=182	=182
16BBB-	16BB-	16F	16d	16d	2ryy	2r	2r	2r	2r	2r	2F	2F	2ryy	8.dd	8.ddd
16BBB-	16BB-	16F	16d	16d	.	.	.	.	.	.	.	.	.	.	.
16BBB-	16BB-	16F	16d	16d	.	.	.	.	.	.	.	.	.	.	.
16BBB-	16BB-	16F	16d	16d	.	.	.	.	.	.	.	.	.	16ee	16eee
16BBB-	16BB-	16F	16d	16d	.	.	.	.	.	.	.	.	.	8ff'	8fff'
16BBB-	16BB-	16F	16d	16d	.	.	.	.	.	.	.	.	.	.	.
16BBB-	16BB-	16F	16d	16d	.	.	.	.	.	.	.	.	.	8r	8r
16BBB-	16BB-	16F	16d	16d	.	.	.	.	.	.	.	.	.	.	.
=183	=183	=183	=183	=183	=183	=183	=183	=183	=183	=183	=183	=183	=183	=183	=183
*	*	*	*	*	*	*	*	*	*	*	*	*	*staff:9	*	*
16GGG	16GG	16E-	16B- 16e-	8G 8e-	2ryy	16GG	[2g	[2g	[2G	[2G	2E-	[2B-	[2ee-	[2ee-	[2bb-
16GGG	16GG	16E-	16B- 16e-	.	.	16GG	.	.	.	.	.	.	.	.	.
16GGG	16GG	16E-	16B- 16e-	16ee-X	.	16GG	.	.	.	.	.	.	.	.	.
16GGG	16GG	16E-	16B- 16e-	16ff	.	16GG	.	.	.	.	.	.	.	.	.
16GGG	16GG	16E-	16B- 16e-	8gg'	.	16GG	.	.	.	.	.	.	.	.	.
16GGG	16GG	16E-	16B- 16e-	.	.	16GG	.	.	.	.	.	.	.	.	.
16GGG	16GG	16E-	16B- 16e-	8ee-'	.	16GG	.	.	.	.	.	.	.	.	.
16GGG	16GG	16E-	16B- 16e-	.	.	16GG	.	.	.	.	.	.	.	.	.
=184	=184	=184	=184	=184	=184	=184	=184	=184	=184	=184	=184	=184	=184	=184	=184
16GGG	16GG	16E-	16B- 16e-	8b-'	2ryy	16GG	2g_	2g_	2G_	2G_	2E-	2B-_	2ee-_	2ee-_	2bb-_
16GGG	16GG	16E-	16B- 16e-	.	.	16GG	.	.	.	.	.	.	.	.	.
16GGG	16GG	16E-	16B- 16e-	8g'	.	16GG	.	.	.	.	.	.	.	.	.
16GGG	16GG	16E-	16B- 16e-	.	.	16GG	.	.	.	.	.	.	.	.	.
16GGG	16GG	16E-	16B- 16e-	8e-'	.	16GG	.	.	.	.	.	.	.	.	.
16GGG	16GG	16E-	16B- 16e-	.	.	16GG	.	.	.	.	.	.	.	.	.
16GGG	16GG	16E-	16B- 16e-	8B-X'	.	16GG	.	.	.	.	.	.	.	.	.
16GGG	16GG	16E-	16B- 16e-	.	.	16GG	.	.	.	.	.	.	.	.	.
=185	=185	=185	=185	=185	=185	=185	=185	=185	=185	=185	=185	=185	=185	=185	=185
4GGG	4GG	4E-	8G 8e-	8G	2ryy	4GG	4g]	4g]	4G]	4G]	4E-	4B-]	4ee-]	4ee-]	4bb-]
.	.	.	8r	8bb-'	.	.	.	.	.	.	.	.	.	.	.
4r	4r	4r	4r	8gg'	.	4r	4r	4r	4r	4r	4ryy	4r	4r	4r	4r
.	.	.	.	8ee-'	.	.	.	.	.	.	.	.	.	.	.
=186	=186	=186	=186	=186	=186	=186	=186	=186	=186	=186	=186	=186	=186	=186	=186
2r	2r	2r	2r	8b-'	2ryy	2r	2r	2r	2r	2r	2r	2r	2r	2r	2r
.	.	.	.	8gg'	.	.	.	.	.	.	.	.	.	.	.
.	.	.	.	8ee-'	.	.	.	.	.	.	.	.	.	.	.
.	.	.	.	8b-'	.	.	.	.	.	.	.	.	.	.	.
=187	=187	=187	=187	=187	=187	=187	=187	=187	=187	=187	=187	=187	=187	=187	=187
2r	2r	2r	2r	8g'	2ryy	2r	2r	2r	2r	2r	2r	2r	2r	2r	2r
.	.	.	.	8b-'	.	.	.	.	.	.	.	.	.	.	.
.	.	.	.	8g'	.	.	.	.	.	.	.	.	.	.	.
.	.	.	.	8e-'	.	.	.	.	.	.	.	.	.	.	.
=188	=188	=188	=188	=188	=188	=188	=188	=188	=188	=188	=188	=188	=188	=188	=188
*staff:11	*staff:11	*staff:12	*staff:13	*staff:14	*	*staff:15	*staff:16	*staff:16	*staff:17	*staff:17	*staff:18	*staff:18	*	*staff:19	*staff:20
2r	2r	2r	2r	8d'	2ryy	2r	2r	2r	2r	2r	2r	2r	2ryy	8.ff	2r
.	.	.	.	8b-'	.	.	.	.	.	.	.	.	.	.	.
.	.	.	.	.	.	.	.	.	.	.	.	.	.	16gg	.
.	.	.	.	8f'	.	.	.	.	.	.	.	.	.	8aa-'	.
.	.	.	.	8d'	.	.	.	.	.	.	.	.	.	8r	.
=189	=189	=189	=189	=189	=189	=189	=189	=189	=189	=189	=189	=189	=189	=189	=189
2r	2r	2r	2r	8e-'	2ryy	2r	2r	2r	2r	2r	2r	2r	2ryy	2r	8.gg
.	.	.	.	8b-'	.	.	.	.	.	.	.	.	.	.	.
.	.	.	.	.	.	.	.	.	.	.	.	.	.	.	16aa-
.	.	.	.	8g'	.	.	.	.	.	.	.	.	.	.	8bb-
.	.	.	.	8e-'	.	.	.	.	.	.	.	.	.	.	8bb-
=190	=190	=190	=190	=190	=190	=190	=190	=190	=190	=190	=190	=190	=190	=190	=190
2r	2r	2r	2r	8d'	2ryy	2r	2r	2r	2r	2r	2r	2r	2ryy	8.ff	[2bb-
.	.	.	.	8b-'	.	.	.	.	.	.	.	.	.	.	.
.	.	.	.	.	.	.	.	.	.	.	.	.	.	16gg	.
.	.	.	.	8f'	.	.	.	.	.	.	.	.	.	8aa-'	.
.	.	.	.	8d'	.	.	.	.	.	.	.	.	.	8r	.
=191	=191	=191	=191	=191	=191	=191	=191	=191	=191	=191	=191	=191	=191	=191	=191
*	*	*	*	*	*	*	*	*	*	*	*	*	*staff:19	*	*
2r	2r	2r	2r	8e-'	2ryy	2r	2r	2r	2r	2r	2r	2r	8.ee-	8.gg	4.bb-]
.	.	.	.	8b-'	.	.	.	.	.	.	.	.	.	.	.
.	.	.	.	.	.	.	.	.	.	.	.	.	16ff	16aa-	.
.	.	.	.	8g'	.	.	.	.	.	.	.	.	8gg'	8bb-'	.
.	.	.	.	8d-'	.	.	.	.	.	.	.	.	8ff'	8r	8bbn
=192	=192	=192	=192	=192	=192	=192	=192	=192	=192	=192	=192	=192	=192	=192	=192
2r	2r	2r	2r	8c'	2ryy	2r	2r	2r	2r	2r	2r	2r	8.een	8.gg	[2ccc
.	.	.	.	8g'	.	.	.	.	.	.	.	.	.	.	.
.	.	.	.	.	.	.	.	.	.	.	.	.	16ff	16aa-	.
.	.	.	.	8en'	.	.	.	.	.	.	.	.	8gg'	8bb-'	.
.	.	.	.	8c'	.	.	.	.	.	.	.	.	8ryy	8r	.
=193	=193	=193	=193	=193	=193	=193	=193	=193	=193	=193	=193	=193	=193	=193	=193
2r	2r	2r	2r	8f'	2ryy	2r	2r	2r	2r	2r	2r	2r	8.ff	8.aa-	4.ccc]
.	.	.	.	8cc'	.	.	.	.	.	.	.	.	.	.	.
.	.	.	.	.	.	.	.	.	.	.	.	.	16gg	16bb-	.
.	.	.	.	8a-'	.	.	.	.	.	.	.	.	8aa-X'	8ccc'	.
.	.	.	.	8e-'	.	.	.	.	.	.	.	.	8gg'	8r	8ccc#
=194	=194	=194	=194	=194	=194	=194	=194	=194	=194	=194	=194	=194	=194	=194	=194
2r	2r	2r	2r	8d'	2ryy	2r	2r	2r	2r	2r	2r	2r	8.ff#	8.aan	2ddd
.	.	.	.	8an'	.	.	.	.	.	.	.	.	.	.	.
.	.	.	.	.	.	.	.	.	.	.	.	.	16gg	16bbn	.
.	.	.	.	8f#'	.	.	.	.	.	.	.	.	8aan'	8ccc'	.
.	.	.	.	8d'	.	.	.	.	.	.	.	.	8ryy	8r	.
=195	=195	=195	=195	=195	=195	=195	=195	=195	=195	=195	=195	=195	=195	=195	=195
2r	2r	4r	4r	8G'	2ryy	4r	4ryy	4r	2GG	2G	2G	2f	4r	8.bbn	8b
.	.	.	.	8fn'	.	.	.	.	.	.	.	.	.	.	96ryy
.	.	.	.	.	.	.	.	.	.	.	.	.	.	.	96ryy
.	.	.	.	.	.	.	.	.	.	.	.	.	.	.	96ryy
.	.	.	.	.	.	.	.	.	.	.	.	.	.	.	96ryy
.	.	.	.	.	.	.	.	.	.	.	.	.	.	.	96ryy
.	.	.	.	.	.	.	.	.	.	.	.	.	.	.	96ryy
.	.	.	.	.	.	.	.	.	.	.	.	.	.	16ccc	96ryy
.	.	.	.	.	.	.	.	.	.	.	.	.	.	.	96ryy
.	.	.	.	.	.	.	.	.	.	.	.	.	.	.	96ryy
.	.	.	.	.	.	.	.	.	.	.	.	.	.	.	96ryy
.	.	.	.	.	.	.	.	.	.	.	.	.	.	.	96ryy
.	.	.	.	.	.	.	.	.	.	.	.	.	.	.	96ryy
.	.	8r	8r	8d'	.	8r	8ryy	8r	.	.	.	.	8ff	8ddd	96ryy
.	.	.	.	.	.	.	.	.	.	.	.	.	.	.	96ryy
.	.	.	.	.	.	.	.	.	.	.	.	.	.	.	96ryy
.	.	.	.	.	.	.	.	.	.	.	.	.	.	.	96ryy
.	.	.	.	.	.	.	.	.	.	.	.	.	.	.	96ryy
.	.	.	.	.	.	.	.	.	.	.	.	.	.	.	96ryy
.	.	.	.	.	.	.	.	.	.	.	.	.	.	.	96ryy
.	.	.	.	.	.	.	.	.	.	.	.	.	.	.	96ryy
.	.	.	.	.	.	.	.	.	.	.	.	.	.	.	96ryy
.	.	.	.	.	.	.	.	.	.	.	.	.	.	.	96ryy
.	.	.	.	.	.	.	.	.	.	.	.	.	.	.	96ryy
.	.	.	.	.	.	.	.	.	.	.	.	.	.	.	96ryy
.	.	8G	8g	8g'	.	8GG	8g	8g	.	.	.	.	8dd	8g	96ryy
.	.	.	.	.	.	.	.	.	.	.	.	.	.	.	96ryy
.	.	.	.	.	.	.	.	.	.	.	.	.	.	.	96ryy
.	.	.	.	.	.	.	.	.	.	.	.	.	.	.	96ryy
.	.	.	.	.	.	.	.	.	.	.	.	.	.	.	96ryy
.	.	.	.	.	.	.	.	.	.	.	.	.	.	.	96ryy
.	.	.	.	.	.	.	.	.	.	.	.	.	.	.	96ryy
.	.	.	.	.	.	.	.	.	.	.	.	.	.	.	96ryy
.	.	.	.	.	.	.	.	.	.	.	.	.	.	.	96ryy
.	.	.	.	.	.	.	.	.	.	.	.	.	.	.	96ryy
.	.	.	.	.	.	.	.	.	.	.	.	.	.	.	96ryy
.	.	.	.	.	.	.	.	.	.	.	.	.	.	.	96ryy
!!WARNING: This measure contained too few data records
=196	=196	=196	=196	=196	=196	=196	=196	=196	=196	=196	=196	=196	=196	=196	=196
4CC	4C	8.c	8.e	8.cc	2ryy	16Cz	4e	4cc	2C	[2G	4CC	4C	8.cc	8.cc	8.cc
.	.	.	.	.	.	16Cz	.	.	.	.	.	.	.	.	.
.	.	.	.	.	.	16Cz	.	.	.	.	.	.	.	.	.
.	.	16d	16g	16dd	.	16Cz	.	.	.	.	.	.	16b	16dd	16dd
4BBB	4BB	8e'	8cc	8ee	.	16Cz	4ryy	4r	.	.	4ryy	4r	8cc	8ee	8ee
.	.	.	.	.	.	16Cz	.	.	.	.	.	.	.	.	.
.	.	8f#'	8dd#	8ff#	.	16Cz	.	.	.	.	.	.	8dd#	8ff#	8ff#
.	.	.	.	.	.	16Cz	.	.	.	.	.	.	.	.	.
=197	=197	=197	=197	=197	=197	=197	=197	=197	=197	=197	=197	=197	=197	=197	=197
*staff:1	*staff:1	*staff:2	*staff:3	*staff:4	*	*staff:5	*staff:6	*staff:6	*staff:7	*staff:7	*staff:8	*staff:8	*staff:9	*staff:9	*staff:10
4CCz	4Cz	8.gz	8.eez	8.ggz	2ryy	16Cz	4e	4cc	2C	2G_	4CC	4C	8.ee	8.ggz	8.ggz
.	.	.	.	.	.	16Cz	.	.	.	.	.	.	.	.	.
.	.	.	.	.	.	16Cz	.	.	.	.	.	.	.	.	.
.	.	16a	16ffn	16aa	.	16Cz	.	.	.	.	.	.	16ffn	16aa	16aa
4BBB	4BB	8g'	8ee	8gg'	.	16Cz	4ryy	4r	.	.	4ryy	4r	8ee	8gg	8gg
.	.	.	.	.	.	16Cz	.	.	.	.	.	.	.	.	.
.	.	8fn'	8ddn'	8ffn'	.	16Cz	.	.	.	.	.	.	8ddn'y	8ffn'	8ffn'
.	.	.	.	.	.	16Cz	.	.	.	.	.	.	.	.	.
=198	=198	=198	=198	=198	=198	=198	=198	=198	=198	=198	=198	=198	=198	=198	=198
4CCz	4Cz	8e'	8cc'	8ee'	2ryy	16Cz	4cc	4ee	2C	2G_	4CC	4C	8cc'y	8ee'	8ee'
.	.	.	.	.	.	16Cz	.	.	.	.	.	.	.	.	.
.	.	8e'	8cc'	8ee'	.	16Cz	.	.	.	.	.	.	8cc'y	8ee'	8ee'
.	.	.	.	.	.	16Cz	.	.	.	.	.	.	.	.	.
4BBB	4BB	8B'y 8d'	8f' 8b'y	8dd'	.	16Cz	4g	4dd	.	.	4ryy	4r	8b'y	8dd'	8dd'
.	.	.	.	.	.	16Cz	.	.	.	.	.	.	.	.	.
.	.	8B'y 8d'	8f' 8b'y	8dd'	.	16Cz	.	.	.	.	.	.	8b'y	8dd'	8dd'
.	.	.	.	.	.	16Cz	.	.	.	.	.	.	.	.	.
=199	=199	=199	=199	=199	=199	=199	=199	=199	=199	=199	=199	=199	=199	=199	=199
4CCz	4Cz	8.cTz	8.etz	8.ccTz	2ryy	16Cz	4e	4cc	4C	4G]	4CC	4C	8.cc	8.ccTz	8.ccTz
.	.	.	.	.	.	16Cz	.	.	.	.	.	.	.	.	.
.	.	.	.	.	.	16Cz	.	.	.	.	.	.	.	.	.
.	.	32B	32d	32b	.	16Cz	.	.	.	.	.	.	32b	32b	32b
.	.	32c	32e	32cc	.	.	.	.	.	.	.	.	32cc	32cc	32cc
4BBB	4BB	8G	8e	8g	.	16Cz	4ryy	4r	4ryy	4r	4ryy	4r	8g	8g	8g
.	.	.	.	.	.	16Cz	.	.	.	.	.	.	.	.	.
.	.	8c	8e	8cc	.	16Cz	.	.	.	.	.	.	8cc	8cc	8cc
.	.	.	.	.	.	16Cz	.	.	.	.	.	.	.	.	.
=200	=200	=200	=200	=200	=200	=200	=200	=200	=200	=200	=200	=200	=200	=200	=200
4CCz	4Cz	8.f	8.a	8.ff	2ryy	16Cz	2c	[2cc	2C	[2c	4CC	4C	8.cc	8.ff	8.ff
.	.	.	.	.	.	16Cz	.	.	.	.	.	.	.	.	.
.	.	.	.	.	.	16Cz	.	.	.	.	.	.	.	.	.
.	.	16g	16g	16gg	.	16Cz	.	.	.	.	.	.	16b-	16gg	16gg
4BBB	4BB	8a	8f	8aa	.	16Cz	.	.	.	.	4ryy	4r	8a	8aa	8aa
.	.	.	.	.	.	16Cz	.	.	.	.	.	.	.	.	.
.	.	8g	8f	8bb	.	16Cz	.	.	.	.	.	.	8g	8bbn	8bb
.	.	.	.	.	.	16Cz	.	.	.	.	.	.	.	.	.
=201	=201	=201	=201	=201	=201	=201	=201	=201	=201	=201	=201	=201	=201	=201	=201
8CCz	8Cz	8.g	8.e	8.bb	2ryy	4C	4c	4cc]	4C	4c]	4CC	4C	8.g	8.ccc	8.ccc
8BBB	8BB	.	.	.	.	.	.	.	.	.	.	.	.	.	.
.	.	16f	16d	16ddd	.	.	.	.	.	.	.	.	16f	16ddd	16ddd
8CC	8C	8e	8c	8eee	.	8r	8ryy	8r	4ryy	8r	4ryy	8r	8e	8eee	8eee
8r;	8r;	8r;	8r;	8r;	.	8r;	8r;yy	8r;	.	8r;	.	8r;	8ryy	8r;	8r;
=202	=202	=202	=202	=202	=202	=202	=202	=202	=202	=202	=202	=202	=202	=202	=202
2r	2r	2r	2r	2r	2ryy	4r	8.ee	8.gg	8.e	8.g	8.e	8.g	8.ee	8.gg	8.ee
.	.	.	.	.	.	.	16dd	16ff	16d	16f	16d	16f	16dd	16ff	16dd
.	.	.	.	.	.	8r	8cc	8ee	8c	8e	8c	8e	8cc	8ee	8cc
.	.	.	.	.	.	8GG	8g	8dd	8G	8d	8G	8d	8b	8dd	8b
=203	=203	=203	=203	=203	=203	=203	=203	=203	=203	=203	=203	=203	=203	=203	=203
2r	2r	2r	2r	2r	2ryy	4C	4e	4cc	4E	4c	4E	4c	4cc	8cc	4cc
.	.	.	.	.	.	.	.	.	.	.	.	.	.	16ccc	.
.	.	.	.	.	.	.	.	.	.	.	.	.	.	16bb	.
.	.	.	.	.	.	4r	4ryy	4r	4ryy	4r	4ryy	4r	4r	16aa	4r
.	.	.	.	.	.	.	.	.	.	.	.	.	.	16gg	.
.	.	.	.	.	.	.	.	.	.	.	.	.	.	16ff	.
.	.	.	.	.	.	.	.	.	.	.	.	.	.	16ee	.
=204	=204	=204	=204	=204	=204	=204	=204	=204	=204	=204	=204	=204	=204	=204	=204
2r	2r	2r	2r	2r	2ryy	4r	8.ee	8.gg	8.e	8.g	8.e	8.g	8.ee	8.gg	8.ee
.	.	.	.	.	.	.	16dd	16ff	16d	16f	16d	16f	16dd	16ff	16dd
.	.	.	.	.	.	8r	8cc	8ee	8c	8e	8c	8e	8cc	8ee	8cc
.	.	.	.	.	.	8GG	8g	8dd	8G	8d	8G	8d	8b	8dd	8b
=205	=205	=205	=205	=205	=205	=205	=205	=205	=205	=205	=205	=205	=205	=205	=205
4ryy	4r	4r	4r	4r	2ryy	8C	8e	8cc	8E	8c	8E	8c	8cc	8cc	8cc
.	.	.	.	.	.	8r	8ryy	8r	8ryy	8r	8ryy	8r	8ryy	8r	8r
8GGG	8GG 8D 8B	8G 8f 8dd	8g 8dd 8ff	8dd 8bb	.	8GG	8g	8g	8G	8g	8G	8G	8gg	8gg	8gg
8ryy	8r	8r	8r	8r	.	8r	16g	16g	16G	16g	16G	16G	16gg	16gg	16gg
.	.	.	.	.	.	.	16g	16g	16G	16g	16G	16G	16gg	16gg	16gg
=206	=206	=206	=206	=206	=206	=206	=206	=206	=206	=206	=206	=206	=206	=206	=206
8CC	8GG 8E 8c	8G 8e 8cc	8g 8cc 8ee	8ee 8ccc	2ryy	8C	8cc	8cc	8c	8e	8c	8c	8ccc	8ccc	8ccc
8ryy	8r	8r	8r	8r	.	8r	8r	8r	8ryy	8r	8r	8r	8r	8r	8r
8GGG	8GG 8D 8B	8G 8d 8b	8G 8f 8b	8d 8b 8gg	.	8GG	8g	8g	8G	8g	8G	8G	8gg	8gg	8gg
8ryy	8r	8r	8r	8r	.	8r	16g	16g	16G	16g	16G	16G	16gg	16gg	16gg
.	.	.	.	.	.	.	16g	16g	16G	16g	16G	16G	16gg	16gg	16gg
=207	=207	=207	=207	=207	=207	=207	=207	=207	=207	=207	=207	=207	=207	=207	=207
4CC	4GG 4E 4c	4G 4e 4cc	4G 4e 4cc	4g 4cc 4ee	2ryy	4C	4cc	4cc	4c	4e	4c	4c	4ee	4ee	4ee
4ryy	4r	4r	4r	4r	.	4r	4r	4r	4ryy	4r	4r	4r	4r	4r	4r
==208||	==208||	==208||	==208||	==208||	==208||	==208||	==208||	==208||	==208||	==208||	==208||	==208||	==208||	==208||	==208||
*-	*-	*-	*-	*-	*-	*-	*-	*-	*-	*-	*-	*-	*-	*-	*-
